!!!!SEGMENT: pl-sa--136-a-iii-36--001_marescalchi-luigi--sinfonia-ex-b-allegro.krn
!!!cenid: 17xx:581
!!!COM: Marescalchi, Luigi
!!!COM-rismID: pe30002079
!!!CDT: 1745-1812
!!!CNT: Italian
!!!OPR: Sinfonia ex B
!!!OTL: Allegro
!!!OMV: 001
!!!PDT:
!!!AGN: Secular
!!!SMS-siglum: PL-SA
!!!SMS-shelfmark: 136/A III 36
!!!SMS-shelfwork: 001-001 M
!!!SMS-variant:
!!!SMS-altvar:
!!!NIFC-rismSourceID:
!!!NIFC-islandoraID:
!!!URL-pdf-islandora:
!!!URL-scan: https://bc.bdsandomierz.pl/dlibra/publication/1493/edition/1461/content @EN{Scan in the Sandomierz Diocese Digital Library} @PL{Skany w portalu Cyfrowa Biblioteka Diecezjalna w Sandomierzu}
!!!ONB-nifc: UWAGA: części Sinfonii: Allegro, Andante, Presto
!!!AIN: 3 empty 2 oboe 2 tromp 1 viola 2 violn
!!!key:
**kern	**dynam	**kern	**dynam	**kern	**dynam	**kern	**dynam	**kern	**dynam	**kern	**dynam	**kern	**kern	**kern	**dynam	**kern
*part10	*part10	*part9	*part9	*part8	*part8	*part7	*part7	*part6	*part6	*part5	*part5	*part4	*part3	*part2	*part2	*part1
*group3	*	*group3	*	*group3	*	*group3	*	*group2	*	*group2	*	*group2	*group2	*group1	*	*group1
*staff10	*	*staff9	*	*staff8	*	*staff7	*	*staff6	*	*staff5	*	*staff4	*staff3	*staff2	*	*staff1
*Iempty	*	*Iviola	*	*Ivioln	*	*Ivioln	*	*Iempty	*	*Iempty	*	*Itromp	*Itromp	*Ioboe	*	*Ioboe
*I"Baſso	*	*I"Viola Obbligato	*	*I"Violino Secondo	*	*I"Violino Primo	*	*I"Cornu Secondo	*	*I"Cornu Primo	*	*I"Tromba Secondo	*I"Troba Prima	*I"Oboe Secondo Obligato	*	*I"Oboe Primo Obligato
*I'B.	*	*I'V-la	*	*I'V-no II	*	*I'V-no I	*	*I'C. II	*	*I'C. I	*	*I'Tr-ba II	*I'Tr-ba I	*I'Ob. II	*	*I'Ob. I
*clefF4	*	*clefC3	*	*clefG2	*	*clefG2	*	*clefG2	*	*clefG2	*	*clefG2	*clefG2	*clefG2	*	*clefG2
*ITrd0c0	*	*	*	*	*	*	*	*ITrd5c9	*	*ITrd5c9	*	*ITrd1c2	*ITrd1c2	*	*	*
*k[b-e-]	*	*k[b-e-]	*	*k[b-e-]	*	*k[b-e-]	*	*k[b-e-a-]	*	*k[b-e-a-]	*	*k[b-e-]	*k[b-e-]	*k[b-e-]	*	*k[b-e-]
*B-:	*	*B-:	*	*B-:	*	*B-:	*	*B-:	*	*B-:	*	*B-:	*B-:	*B-:	*	*B-:
*M4/4	*	*M4/4	*	*M4/4	*	*M4/4	*	*M4/4	*	*M4/4	*	*M4/4	*M4/4	*M4/4	*	*M4/4
*met(c)	*	*met(c)	*	*met(c)	*	*met(c)	*	*met(c)	*	*met(c)	*	*met(c)	*met(c)	*met(c)	*	*met(C.)
=1	=1	=1	=1	=1	=1	=1	=1	=1	=1	=1	=1	=1	=1	=1	=1	=1
!LO:TX:a:i:t=Allo	!	!LO:TX:a:i:t=Allo	!	!LO:TX:a:i:t=Allegro	!	!LO:TX:a:i:t=Allegro	!	!LO:TX:a:i:t=Allo	!	!LO:TX:a:i:t=Allo	!	!LO:TX:a:i:t=Allo	!LO:TX:a:i:t=Allo	!LO:TX:a:i:t=Allo	!	!LO:TX:a:i:t=Alla.
!LO:TX:a:i:t=Sinfonia	!	!	!	!LO:TX:a:i:t=Sinfonia	!	!LO:TX:a:i:t=Sinfonia	!	!LO:TX:a:i:t=Sinfonia	!	!LO:TX:a:i:t=Sinfonia	!	!LO:TX:a:i:t=Sinfonia	!LO:TX:a:i:t=Sinfonia	!LO:TX:a:i:t=Symfonia	!	!LO:TX:a:i:t=Syinfonia
!LO:TX:a:t=P:problem=all\right&colon; global	!	!	!	!LO:TX:a:t=P:problem=all\right&colon; global	!	!LO:TX:a:t=P:problem=all\right&colon; global	!	!LO:TX:a:t=P:problem=all\right&colon; global	!	!LO:TX:a:t=P:problem=all\right&colon; global	!	!LO:TX:a:t=P:problem=all\right&colon; global	!	!LO:TX:a:t=P:problem=all\right&colon; global	!	!LO:TX:a:t=P:problem=all\right&colon; global
!LO:TX:a:t=P:problem=przy kluczu E- BB-	!	!LO:TX:a:t=P:problem=przy kluczu ee- b-	!	!LO:TX:a:t=P:problem=przy kluczu ee- b-	!	!LO:TX:a:t=P:problem=przy kluczu ee- b-	!	!	!	!	!	!	!	!LO:TX:a:t=P:problem=przy kluczu ee- b-	!	!LO:TX:a:t=P:problem=przy kluczu ee- b-
4B-\	.	4b-\	.	4b- 4d/	.	4bb- 4b- 4d/	.	4B-/	.	4b-\	.	4d/	4b-/	4b-/	.	4bb-\
4F\	.	4f\	.	4f/	.	4ff 4b- 4d/	.	4f\	.	4f\	.	4f/	4f/	4f/	.	4ff\
4D\	.	4d\	.	4d/	.	4dd 4d/	.	4B-/	.	4f\	.	4d/	4d/	4d/	.	4dd\
4r	.	4r	.	4r	.	4r	.	4r	.	4r	.	4r	4r	4r	.	4r
=2	=2	=2	=2	=2	=2	=2	=2	=2	=2	=2	=2	=2	=2	=2	=2	=2
8BB-\L	.	8B-\L	.	8B-/L	.	8b-\L	.	4B-/	.	4B-/	.	8B-/L	8B-/L	8b-\L	.	8b-\L
16D\L	.	16d\L	.	16d/L	.	16dd\L	.	.	.	.	.	8d/	8d/	16dd\L	.	16dd\L
16E-\J	.	16e-\J	.	16e-/J	.	16ee-\JJ	.	.	.	.	.	.	.	16ee-\J	.	16ee-\J
8F\	.	8f\	.	8f/	.	8ff\L	.	8f\L	.	8f\L	.	8f/	8f/	8ff\	.	8ff\
8F\J	.	8f\J	.	8f/J	.	8ff\J	.	8f\J	.	8f\J	.	8f/J	8f/J	8ff\J	.	8ff\J
4F\	.	4f\	.	4f/	.	4ff\	.	4f\	.	4f\	.	4f/	4f/	4ff\	.	4ff\
4r	.	4r	.	4r	.	4r	.	4r	.	4r	.	4r	4r	4r	.	4r
=3	=3	=3	=3	=3	=3	=3	=3	=3	=3	=3	=3	=3	=3	=3	=3	=3
00r	.	00r	.	(8c/L	p	(4.ee-\	.	00r	.	00r	.	00r	00r	00r	.	00r
!	!	!	!	!LO:TX:a:t=P:global:problem=niejednoznaczny zapis artykulacji [przyjęto staccato]	!	!	!	!	!	!	!	!	!	!	!	!
.	.	.	.	8e-'/)	.	.	.	.	.	.	.	.	.	.	.	.
.	.	.	.	8c/	.	.	.	.	.	.	.	.	.	.	.	.
.	.	.	.	8e-'/J	.	8cc\	.	.	.	.	.	.	.	.	.	.
.	.	.	.	8c'/L	.	4a\)	.	.	.	.	.	.	.	.	.	.
.	.	.	.	8e-'/	.	.	.	.	.	.	.	.	.	.	.	.
.	.	.	.	8c'/	.	4r	.	.	.	.	.	.	.	.	.	.
.	.	.	.	8e-'/J	.	.	.	.	.	.	.	.	.	.	.	.
=4	=4	=4	=4	=4	=4	=4	=4	=4	=4	=4	=4	=4	=4	=4	=4	=4
.	.	.	.	(8d/L	.	(4.ff\	.	.	.	.	.	.	.	.	.	.
.	.	.	.	8f/)	.	.	.	.	.	.	.	.	.	.	.	.
.	.	.	.	8d'/	.	.	.	.	.	.	.	.	.	.	.	.
.	.	.	.	8f'/J	.	8dd\	.	.	.	.	.	.	.	.	.	.
.	.	.	.	8d'/L	.	4b-\)	.	.	.	.	.	.	.	.	.	.
.	.	.	.	8f'/	.	.	.	.	.	.	.	.	.	.	.	.
.	.	.	.	8d'/	.	4r	.	.	.	.	.	.	.	.	.	.
.	.	.	.	8f'/J	.	.	.	.	.	.	.	.	.	.	.	.
=5	=5	=5	=5	=5	=5	=5	=5	=5	=5	=5	=5	=5	=5	=5	=5	=5
.	.	.	.	8g'/L	.	4bb-'\	.	.	.	.	.	.	.	.	.	.
.	.	.	.	8b-'/	.	.	.	.	.	.	.	.	.	.	.	.
.	.	.	.	8f'/	.	4aa'\	.	.	.	.	.	.	.	.	.	.
.	.	.	.	8a'/J	.	.	.	.	.	.	.	.	.	.	.	.
.	.	.	.	8e-'/L	.	4gg'\	.	.	.	.	.	.	.	.	.	.
.	.	.	.	8g'/	.	.	.	.	.	.	.	.	.	.	.	.
.	.	.	.	8d'/	.	4ff'\	.	.	.	.	.	.	.	.	.	.
.	.	.	.	8f'/J	.	.	.	.	.	.	.	.	.	.	.	.
=6	=6	=6	=6	=6	=6	=6	=6	=6	=6	=6	=6	=6	=6	=6	=6	=6
.	.	.	.	8c/L	.	4ee-'\	.	.	.	.	.	.	.	.	.	.
.	.	.	.	8e-/	.	.	.	.	.	.	.	.	.	.	.	.
.	.	.	.	8B-/	.	4dd'\	.	.	.	.	.	.	.	.	.	.
.	.	.	.	8d/J	.	.	.	.	.	.	.	.	.	.	.	.
.	.	.	.	8A/L	.	4cc'\	.	.	.	.	.	.	.	.	.	.
.	.	.	.	8c/	.	.	.	.	.	.	.	.	.	.	.	.
.	.	.	.	8B-/	.	4dd'\	.	.	.	.	.	.	.	.	.	.
.	.	.	.	8d/J	.	.	.	.	.	.	.	.	.	.	.	.
=7	=7	=7	=7	=7	=7	=7	=7	=7	=7	=7	=7	=7	=7	=7	=7	=7
1r	.	1r	.	8c/L	.	8ee-'\L	.	1r	.	1r	.	1r	1r	1r	.	1r
.	.	.	.	8d/	.	8ff'\	.	.	.	.	.	.	.	.	.	.
.	.	.	.	8e-/	.	8gg'\	.	.	.	.	.	.	.	.	.	.
.	.	.	.	8d/J	.	8ff'\J	.	.	.	.	.	.	.	.	.	.
.	.	.	.	8d/L	.	(8ff\L	.	.	.	.	.	.	.	.	.	.
.	.	.	.	8c/	.	8ee-\)	.	.	.	.	.	.	.	.	.	.
.	.	.	.	8B-/	.	8dd'\	.	.	.	.	.	.	.	.	.	.
.	.	.	.	8A/J	.	8cc'\J	.	.	.	.	.	.	.	.	.	.
=8	=8	=8	=8	=8	=8	=8	=8	=8	=8	=8	=8	=8	=8	=8	=8	=8
4B-\	.	4b-\	.	4b- 4d/	f	4bb- 4b- 4d/	f	4B-/	.	4b-\	.	4d/	4b-/	4b-/	.	4bb-\
4F\	.	4f\	.	4f/	.	4ff 4b- 4d/	.	4f\	.	4f\	.	4f/	4f/	4f/	.	4ff\
!	!	!	!	!	!	!LO:LB:g=original	!	!	!	!	!	!	!	!	!	!
4D\	.	4d\	.	4d/	.	4dd 4d/	.	4B-/	.	4f\	.	4d/	4d/	4d/	.	4dd\
4r	.	4r	.	4r	.	4r	.	4r	.	4r	.	4r	4r	4r	.	4r
!	!	!	!	!LO:LB:g=original	!	!	!	!	!	!	!	!	!	!	!	!
=9	=9	=9	=9	=9	=9	=9	=9	=9	=9	=9	=9	=9	=9	=9	=9	=9
!	!	!LO:TX:a:t=P:problem=brak taktu	!	!	!	!	!	!	!	!	!	!	!	!	!	!
8BB-\L	.	1ryy	.	8B-/L	.	8b-\L	.	4B-/	.	4B-/	.	8B-/L	8b-\L	8b-\L	.	8b-\L
16D\L	.	.	.	16d/L	.	16dd\L	.	.	.	.	.	8d/	8dd\	16dd\L	.	16dd\L
16E-\J	.	.	.	16e-/J	.	16ee-\JJ	.	.	.	.	.	.	.	16ee-\J	.	16ee-\J
8F\	.	.	.	8f/	.	8ff\L	.	8f\L	.	8f\L	.	8f/	8ff\	8ff\	.	8ff\
8F\J	.	.	.	8f/J	.	8ff\J	.	8f\J	.	8f\J	.	8f/J	8ff\J	8ff\J	.	8ff\J
4F\	.	.	.	4f/	.	4ff\	.	4f\	.	4f\	.	4f/	4ff\	4ff\	.	4ff\
4r	.	.	.	4r	.	4r	.	4r	.	4r	.	4r	4r	4r	.	4r
=10	=10	=10	=10	=10	=10	=10	=10	=10	=10	=10	=10	=10	=10	=10	=10	=10
00r	.	00r	.	8c/L	.	(4.ee-\	.	00r	.	00r	.	00r	00r	00r	.	00r
.	.	.	.	8e-/	.	.	.	.	.	.	.	.	.	.	.	.
.	.	.	.	8c/	.	.	.	.	.	.	.	.	.	.	.	.
.	.	.	.	8e-/J	.	8cc\	.	.	.	.	.	.	.	.	.	.
.	.	.	.	8c/L	.	4a\)	.	.	.	.	.	.	.	.	.	.
.	.	.	.	8e-/	.	.	.	.	.	.	.	.	.	.	.	.
.	.	.	.	8c/	.	4r	.	.	.	.	.	.	.	.	.	.
.	.	.	.	8e-/J	.	.	.	.	.	.	.	.	.	.	.	.
=11	=11	=11	=11	=11	=11	=11	=11	=11	=11	=11	=11	=11	=11	=11	=11	=11
.	.	.	.	8d/L	.	(4.ff\	.	.	.	.	.	.	.	.	.	.
.	.	.	.	8f/	.	.	.	.	.	.	.	.	.	.	.	.
.	.	.	.	8d/	.	.	.	.	.	.	.	.	.	.	.	.
.	.	.	.	8f/J	.	8dd\	.	.	.	.	.	.	.	.	.	.
.	.	.	.	8d/L	.	4b-\)	.	.	.	.	.	.	.	.	.	.
.	.	.	.	8f/	.	.	.	.	.	.	.	.	.	.	.	.
.	.	.	.	8d/	.	4r	.	.	.	.	.	.	.	.	.	.
.	.	.	.	8f/J	.	.	.	.	.	.	.	.	.	.	.	.
=12	=12	=12	=12	=12	=12	=12	=12	=12	=12	=12	=12	=12	=12	=12	=12	=12
.	.	.	.	8g/L	.	8bb-\L	.	.	.	.	.	.	.	.	.	.
.	.	.	.	8b-/	.	(8bb-\	.	.	.	.	.	.	.	.	.	.
.	.	.	.	8f/	.	8aa\)	.	.	.	.	.	.	.	.	.	.
.	.	.	.	8a/J	.	(8aa\J	.	.	.	.	.	.	.	.	.	.
.	.	.	.	8e-/L	.	8gg\L)	.	.	.	.	.	.	.	.	.	.
.	.	.	.	8g/	.	(8gg\	.	.	.	.	.	.	.	.	.	.
.	.	.	.	8d/	.	8ff\)	.	.	.	.	.	.	.	.	.	.
.	.	.	.	8f/J	.	(8ff\J	.	.	.	.	.	.	.	.	.	.
=13	=13	=13	=13	=13	=13	=13	=13	=13	=13	=13	=13	=13	=13	=13	=13	=13
.	.	.	.	8c/L	.	8ee-\L)	.	.	.	.	.	.	.	.	.	.
.	.	.	.	8e-/	.	(8ee-\	.	.	.	.	.	.	.	.	.	.
.	.	.	.	8B-/	.	8dd\)	.	.	.	.	.	.	.	.	.	.
.	.	.	.	8d/J	.	(8dd\J	.	.	.	.	.	.	.	.	.	.
.	.	.	.	8A/L	.	8cc\L)	.	.	.	.	.	.	.	.	.	.
.	.	.	.	8c/	.	(8cc\	.	.	.	.	.	.	.	.	.	.
.	.	.	.	8B-/	.	8dd\)	.	.	.	.	.	.	.	.	.	.
.	.	.	.	8d/J	.	(8dd\J	.	.	.	.	.	.	.	.	.	.
=14	=14	=14	=14	=14	=14	=14	=14	=14	=14	=14	=14	=14	=14	=14	=14	=14
1r	.	1r	.	8c/L	.	8ee-\L)	.	1r	.	1r	.	1r	1r	1r	.	1r
.	.	.	.	8d/	.	8ff'\	.	.	.	.	.	.	.	.	.	.
.	.	.	.	8e-/	.	8gg'\	.	.	.	.	.	.	.	.	.	.
.	.	.	.	8d/J	.	8ff'\J	.	.	.	.	.	.	.	.	.	.
.	.	.	.	8d/L	.	(8ff\L	.	.	.	.	.	.	.	.	.	.
.	.	.	.	8c/	.	8ee-\)	.	.	.	.	.	.	.	.	.	.
.	.	.	.	8B-/	.	8dd\	.	.	.	.	.	.	.	.	.	.
.	.	.	.	8A/J	.	8cc\J	.	.	.	.	.	.	.	.	.	.
=15	=15	=15	=15	=15	=15	=15	=15	=15	=15	=15	=15	=15	=15	=15	=15	=15
*	*	*2\right	*	*	*	*	*	*	*	*	*	*	*	*	*	*
*	*	*tremolo	*	*	*	*	*	*	*	*	*	*	*	*	*	*
!	!	!	!	!	!	!	!LO:DY:rj	!	!	!	!	!	!	!	!	!
4B-\	.	8d\L	.	8d/	f	8b-/L	f	4B-/	.	4f\	.	4d/	4b-\	4d/	.	4b-\
.	.	8d\	.	4f/	.	8b-/	.	.	.	.	.	.	.	.	.	.
4r	.	8d\	.	.	.	8b-/	.	4r	.	4r	.	4r	4r	4r	.	4r
.	.	8d\J	.	4f/	.	8b-/J	.	.	.	.	.	.	.	.	.	.
*	*	*Xtremolo	*	*	*	*	*	*	*	*tremolo	*	*	*	*tremolo	*	*
4d\	.	8d\L	.	.	.	8b-\L	.	8B-\L	.	8f\L	.	4d/	4b-\	8f/L	.	8b-\L
.	.	8d\	.	4f/	.	8b-\J	.	8B-\	.	8f\	.	.	.	8f/	.	8b-\J
4A\	.	8f\	.	.	.	(8.cc\L	.	8f\	.	8f\	.	4f/	4cc\	8f/	.	8.cc\L
.	.	8f\J	.	[8f/	.	.	.	8f\J	.	8f\J	.	.	.	8f/J	.	.
*	*	*	*	*	*	*	*	*	*	*Xtremolo	*	*	*	*Xtremolo	*	*
.	.	.	.	.	.	32b-\LL	.	.	.	.	.	.	.	.	.	32b-\LL
.	.	.	.	.	.	32cc\JJJ)	.	.	.	.	.	.	.	.	.	32cc\JJJ
!	!	!	!	!	!	!LO:LB:g=original	!	!	!	!	!	!	!	!	!	!
=16	=16	=16	=16	=16	=16	=16	=16	=16	=16	=16	=16	=16	=16	=16	=16	=16
*	*	*tremolo	*	*	*	*	*	*	*	*	*	*	*	*	*	*
4B-\	.	8b-\L	.	8f/]	.	8dd\L	.	4B-/	.	4f\	.	4b-\	4dd\	4f/	.	4dd\
.	.	8b-\	.	4f/	.	8dd\	.	.	.	.	.	.	.	.	.	.
4r	.	8b-\	.	.	.	8dd\	.	4r	.	4r	.	4r	4r	4r	.	4r
.	.	8b-\J	.	4f/	.	8dd\J	.	.	.	.	.	.	.	.	.	.
*	*	*Xtremolo	*	*	*	*	*	*	*	*tremolo	*	*	*	*	*	*
4B-\	.	8b-\L	.	.	.	8dd\L	.	8B-\L	.	8f\L	.	4b-\	4dd\	8b-\L	.	8dd\L
.	.	8b-\J	.	4f/	.	8dd\J	.	8B-\	.	8f\	.	.	.	8b-\J	.	8dd\J
.	.	8qqdd/	.	.	.	8qqff/	.	.	.	.	.	.	.	8qqdd/	.	8qqff/
4F\	.	8cc\L	.	.	.	8ee-\L	.	8f\	.	8f\	.	4f/	4cc\	8cc\L	.	8ee-\L
.	.	16b-\L	.	[8f/	.	16dd\L	.	8f\J	.	8f\J	.	.	.	16b-\L	.	16dd\L
.	.	16a\JJ	.	.	.	16cc\JJ	.	.	.	.	.	.	.	16a\JJ	.	16cc\JJ
*	*	*	*	*	*	*	*	*	*	*Xtremolo	*	*	*	*	*	*
=17	=17	=17	=17	=17	=17	=17	=17	=17	=17	=17	=17	=17	=17	=17	=17	=17
4B-\	.	8b-\L	.	8f/L]	.	8dd\	.	4B-/	.	4f\	.	4d/	4b-\	4b-\	.	4dd\
.	.	8d\	.	8b-/	.	4ff\	.	.	.	.	.	.	.	.	.	.
4r	.	8d\	.	8b-/	.	.	.	4r	.	4r	.	4r	4r	4r	.	4r
.	.	8d\J	.	8b-/J	.	4ff\	.	.	.	.	.	.	.	.	.	.
*	*	*	*	*	*	*	*	*	*	*tremolo	*	*	*	*tremolo	*	*
!	!	!	!	!	!	!	!	!	!	!	!	!	!	!	!	!LO:LB:g=original
4d\	.	8d\L	.	8b-\L	.	.	.	8B-\L	.	8f\L	.	4d/	4b-\	8f/L	.	8b-\L
.	.	8d\	.	8b-\J	.	4ff\	.	8B-\	.	8f\	.	.	.	8f/	.	8b-\J
4A\	.	8f\	.	(8.cc\L	.	.	.	8f\	.	8f\	.	4f/	4cc\	8f/	.	8.cc\L
.	.	8f\J	.	.	.	[8ff\	.	8f\J	.	8f\J	.	.	.	8f/J	.	.
*	*	*	*	*	*	*	*	*	*	*Xtremolo	*	*	*	*Xtremolo	*	*
.	.	.	.	32b-\LL	.	.	.	.	.	.	.	.	.	.	.	32b-\LL
.	.	.	.	32cc\JJJ)	.	.	.	.	.	.	.	.	.	.	.	32cc\JJJ
!LO:LB:g=original	!	!	!	!LO:LB:g=original	!	!	!	!	!	!	!	!	!LO:LB:g=original	!	!	!
=18	=18	=18	=18	=18	=18	=18	=18	=18	=18	=18	=18	=18	=18	=18	=18	=18
*	*	*tremolo	*	*tremolo	*	*	*	*	*	*	*	*	*	*	*	*
4B-\	.	8b-\L	.	8dd\L	.	8ff\]	.	4B-/	.	4f\	.	4b-\	4dd\	4f/	.	4dd\
.	.	8b-\	.	8dd\	.	4ff\	.	.	.	.	.	.	.	.	.	.
4r	.	8b-\	.	8dd\	.	.	.	4r	.	4r	.	4r	4r	4r	.	4r
.	.	8b-\J	.	8dd\J	.	4ff\	.	.	.	.	.	.	.	.	.	.
*	*	*Xtremolo	*	*	*	*	*	*	*	*tremolo	*	*	*	*	*	*
!	!	!	!	!	!	!	!	!	!	!	!	!	!	!LO:LB:g=original	!	!
4B-\	.	8b-\L	.	8dd\L	.	.	.	8B-\L	.	8f\L	.	4b-\	4dd\	8b-\L	.	8dd\L
.	.	8b-\J	.	8dd\J	.	4ff\	.	8B-\	.	8f\	.	.	.	8b-\J	.	8dd\J
.	.	8qqdd/	.	8qqff/	.	.	.	.	.	.	.	.	.	8qqdd/	.	8qqff/
4F\	.	8cc\L	.	8ee-\L	.	.	.	8f\	.	8f\	.	4f/	4cc\	8cc\L	.	8ee-\L
.	.	16b-\L	.	16dd\L	.	8ff\	.	8f\J	.	8f\J	.	.	.	16b-\L	.	16dd\L
.	.	16a\JJ	.	16cc\JJ	.	.	.	.	.	.	.	.	.	16a\JJ	.	16cc\JJ
*	*	*	*	*	*	*	*	*	*	*Xtremolo	*	*	*	*	*	*
!	!	!LO:LB:g=original	!	!	!	!	!	!LO:LB:g=original	!	!	!	!LO:LB:g=original	!	!	!	!
=19	=19	=19	=19	=19	=19	=19	=19	=19	=19	=19	=19	=19	=19	=19	=19	=19
*	*	*tremolo	*	*	*	*	*	*	*	*	*	*	*	*	*	*
!LO:TX:a:t=P:problem=mixed beam	!	!	!	!	!	!	!	!	!	!	!	!	!	!	!	!
8BB-/L	.	8b-\L	.	8dd\	.	4ff\	sf	4B-/	.	4f\	.	4d/	4b-\	4b-\	.	4dd\
8B-\	.	8b-\	.	4ff\	.	.	.	.	.	.	.	.	.	.	.	.
8B-\	.	8b-\	.	.	.	2ddd\	.	4r	.	4r	.	4r	4r	2ff\	.	2ddd\
8B-\J	.	8b-\J	.	4ff\	.	.	.	.	.	.	.	.	.	.	.	.
*	*	*Xtremolo	*	*	*	*	*	*	*	*	*	*	*	*	*	*
8B-\L	.	8b-\L	.	.	.	.	.	4f\	.	4f\	.	4b-\	8dd\L	.	.	.
8B-\J	.	8b-\J	.	4ff\	.	.	.	.	.	.	.	.	8dd\	.	.	.
8.Am\L	.	(8.at\L	.	.	.	4ccc\	.	4f\	.	4f\	.	4f/	8cc\	[4ff\	.	4ccc\
.	.	.	.	8ff\	.	.	.	.	.	.	.	.	8cc\J	.	.	.
32G\LL	.	32g\LL	.	.	.	.	.	.	.	.	.	.	.	.	.	.
32A\JJJ	.	32a\JJJ)	.	.	.	.	.	.	.	.	.	.	.	.	.	.
!	!	!	!	!	!	!	!	!	!	!LO:LB:g=original	!	!	!	!	!	!
=20	=20	=20	=20	=20	=20	=20	=20	=20	=20	=20	=20	=20	=20	=20	=20	=20
*tremolo	*	*tremolo	*	*	*	*	*	*	*	*	*	*	*	*	*	*
8G\L	.	8g\L	.	16ff\LL	.	4bb-\	sf	4g\	.	4g\	.	4d/	4b-\	4ff\]	.	4bb-\
.	.	.	.	16ff\	.	.	.	.	.	.	.	.	.	.	.	.
8G\	.	8g\	.	16ff\	.	.	.	.	.	.	.	.	.	.	.	.
.	.	.	.	16ff\	.	.	.	.	.	.	.	.	.	.	.	.
8G\	.	8g\	.	16ff\	.	2bb-\	.	4r	.	4r	.	4r	4r	4ff\	.	2bb-\
.	.	.	.	16ff\	.	.	.	.	.	.	.	.	.	.	.	.
*Xtremolo	*	*Xtremolo	*	*	*	*	*	*	*	*	*	*	*	*	*	*
8G\J	.	8g\J	.	16ff\	.	.	.	.	.	.	.	.	.	.	.	.
.	.	.	.	16ff\JJ	.	.	.	.	.	.	.	.	.	.	.	.
8G\L	.	8g\L	.	16een\LL	.	.	.	4g\	.	4g\	.	8b-\L	8b-\L	4een\	.	.
.	.	.	.	16een\	.	.	.	.	.	.	.	.	.	.	.	.
8G\J	.	8g\J	.	16een\	.	.	.	.	.	.	.	8b-\	8b-\	.	.	.
.	.	.	.	16een\JJ	.	.	.	.	.	.	.	.	.	.	.	.
8.F\L	.	(8.f\L	.	16ff\LL	.	4aa\	.	4f\	.	4f\	.	8f\	8cc\	4ff\	.	4aa\
.	.	.	.	16ff\	.	.	.	.	.	.	.	.	.	.	.	.
.	.	.	.	16ff\	.	.	.	.	.	.	.	8f\J	8cc\J	.	.	.
32En\LL	.	32en\LL	.	16ff\JJ	.	.	.	.	.	.	.	.	.	.	.	.
32F\JJJ	.	32f\JJJ)	.	.	.	.	.	.	.	.	.	.	.	.	.	.
=21	=21	=21	=21	=21	=21	=21	=21	=21	=21	=21	=21	=21	=21	=21	=21	=21
*tremolo	*	*tremolo	*	*	*	*	*	*	*	*	*	*	*	*	*	*
8B-\L	.	8b-\L	.	16dd\LL	.	4gg\	sf	4B-/	.	4b-\	.	4b-\	4dd\	2dd\	.	4gg\
.	.	.	.	16dd\	.	.	.	.	.	.	.	.	.	.	.	.
8B-\	.	8b-\	.	16dd\	.	.	.	.	.	.	.	.	.	.	.	.
.	.	.	.	16dd\	.	.	.	.	.	.	.	.	.	.	.	.
8B-\	.	8b-\	.	16dd\	.	2gg\	.	4r	.	4r	.	4r	4r	.	.	2gg\
.	.	.	.	16dd\	.	.	.	.	.	.	.	.	.	.	.	.
8B-\J	.	8b-\J	.	16dd\	.	.	.	.	.	.	.	.	.	.	.	.
.	.	.	.	16dd\JJ	.	.	.	.	.	.	.	.	.	.	.	.
*Xtremolo	*	*Xtremolo	*	*	*	*	*	*	*	*	*	*	*tremolo	*	*	*
8B-\L	.	8b-\L	.	16dd\LL	.	.	.	4g\	.	4g\	.	8b-\L	8dd\L	2dd\	.	.
.	.	.	.	16dd\	.	.	.	.	.	.	.	.	.	.	.	.
8B-\J	.	8b-\J	.	16dd\	.	.	.	.	.	.	.	8b-\	8dd\	.	.	.
.	.	.	.	16dd\	.	.	.	.	.	.	.	.	.	.	.	.
8.Bn\L	.	(8.bn\L	.	16dd\	.	4ff\	.	4g\	.	4g\	.	8f\	8dd\	.	.	4ff\
.	.	.	.	16dd\	.	.	.	.	.	.	.	.	.	.	.	.
.	.	.	.	16dd\	.	.	.	.	.	.	.	8f\J	8dd\J	.	.	.
32A\LL	.	32a\LL	.	16dd\JJ	.	.	.	.	.	.	.	.	.	.	.	.
32B\JJJ	.	32b\JJJ)	.	.	.	.	.	.	.	.	.	.	.	.	.	.
*	*	*	*	*Xtremolo	*	*	*	*	*	*	*	*	*Xtremolo	*	*	*
=22	=22	=22	=22	=22	=22	=22	=22	=22	=22	=22	=22	=22	=22	=22	=22	=22
4c\	.	4cc\	.	(8cc\L	.	4een\	.	4g\	.	4g\	.	4b-\	4cc\	4cc\	.	4een\
.	.	.	.	8cc\	.	.	.	.	.	.	.	.	.	.	.	.
4r	.	4r	.	8bn\	.	4r	.	4r	.	4r	.	4r	4r	4r	.	4r
.	.	.	.	8cc\J	.	.	.	.	.	.	.	.	.	.	.	.
2r	.	4r	.	8b\L	.	4r	.	2r	.	2r	.	8b-\L	2r	2r	.	2r
.	.	.	.	8cc\)	.	.	.	.	.	.	.	8dd\	.	.	.	.
.	.	4g\	.	8g\	.	(8.ee\L	.	.	.	.	.	8dd\	.	.	.	.
.	.	.	.	8b-X\J	.	.	.	.	.	.	.	8dd\J	.	.	.	.
.	.	.	.	.	.	32dd\LL	.	.	.	.	.	.	.	.	.	.
.	.	.	.	.	.	32ee\JJJ)	.	.	.	.	.	.	.	.	.	.
=23	=23	=23	=23	=23	=23	=23	=23	=23	=23	=23	=23	=23	=23	=23	=23	=23
4c\	.	4a\	.	8a/L	.	8ff\	.	1r	.	1r	.	4cc\	1r	1r	.	1r
.	.	.	.	8cc/	.	8r	.	.	.	.	.	.	.	.	.	.
4r	.	4en\	.	8en/	.	(8.gg\L	.	.	.	.	.	4r	.	.	.	.
.	.	.	.	8g/J	.	.	.	.	.	.	.	.	.	.	.	.
.	.	.	.	.	.	32ff\LL	.	.	.	.	.	.	.	.	.	.
.	.	.	.	.	.	32gg\JJJ)	.	.	.	.	.	.	.	.	.	.
4c\	.	4f\	.	8f/L	.	8aa\	.	.	.	.	.	2r	.	.	.	.
.	.	.	.	8a/	.	8r	.	.	.	.	.	.	.	.	.	.
4r	.	4d\	.	8d/	.	8.bbn\L	.	.	.	.	.	.	.	.	.	.
.	.	.	.	8f/J	.	.	.	.	.	.	.	.	.	.	.	.
.	.	.	.	.	.	32aa\LL	.	.	.	.	.	.	.	.	.	.
.	.	.	.	.	.	32bb\JJJ	.	.	.	.	.	.	.	.	.	.
!	!	!	!	!	!	!LO:LB:g=original	!	!	!	!	!	!	!	!	!	!
=24	=24	=24	=24	=24	=24	=24	=24	=24	=24	=24	=24	=24	=24	=24	=24	=24
!	!	!	!	!LO:TX:a:t=P:problem=mixed beam	!	!	!	!	!	!	!	!	!	!	!	!
4c\	.	4c\	.	8en/L	.	4ccc\	.	4g\	.	4g\	.	1r	4cc\	4een\	.	4ccc\
.	.	.	.	8cc\	.	.	.	.	.	.	.	.	.	.	.	.
4r	.	4r	.	8bn\	.	4r	.	4r	.	4r	.	.	4r	4r	.	4r
.	.	.	.	8cc\J	.	.	.	.	.	.	.	.	.	.	.	.
2r	.	4r	.	8b\L	.	4r	.	2r	.	2r	.	.	2r	2r	.	2r
.	.	.	.	8cc\	.	.	.	.	.	.	.	.	.	.	.	.
.	.	4g\	.	8g\	.	8.een\L	.	.	.	.	.	.	.	.	.	.
.	.	.	.	8b-X\J	.	.	.	.	.	.	.	.	.	.	.	.
.	.	.	.	.	.	32dd\LL	.	.	.	.	.	.	.	.	.	.
.	.	.	.	.	.	32ee\JJJ	.	.	.	.	.	.	.	.	.	.
=25	=25	=25	=25	=25	=25	=25	=25	=25	=25	=25	=25	=25	=25	=25	=25	=25
!	!	!	!	!	!	!	!	!	!	!	!	!LO:TX:a:t=P:problem=brak taktu	!	!	!	!
4C/	.	4a\	.	8a/L	.	8ff\	.	1r	.	1r	.	1ryy	1r	1r	.	1r
.	.	.	.	8cc/	.	8r	.	.	.	.	.	.	.	.	.	.
4r	.	4en\	.	8en/	.	8.gg\L	.	.	.	.	.	.	.	.	.	.
.	.	.	.	8g/J	.	.	.	.	.	.	.	.	.	.	.	.
.	.	.	.	.	.	32ff\LL	.	.	.	.	.	.	.	.	.	.
.	.	.	.	.	.	32gg\JJJ	.	.	.	.	.	.	.	.	.	.
4C/	.	4f\	.	8f/L	.	8aa\	.	.	.	.	.	.	.	.	.	.
.	.	.	.	8a/	.	8r	.	.	.	.	.	.	.	.	.	.
4r	.	4d\	.	8d/	.	8.bbn\L	.	.	.	.	.	.	.	.	.	.
.	.	.	.	8f/J	.	.	.	.	.	.	.	.	.	.	.	.
.	.	.	.	.	.	32aa\LL	.	.	.	.	.	.	.	.	.	.
.	.	.	.	.	.	32bb\JJJ	.	.	.	.	.	.	.	.	.	.
=26	=26	=26	=26	=26	=26	=26	=26	=26	=26	=26	=26	=26	=26	=26	=26	=26
*tremolo	*	*tremolo	*	*	*	*	*	*	*	*	*	*tremolo	*tremolo	*	*	*
8C/L	.	8c\L	.	4en/	.	4ccc\	.	4g\	.	4g\	.	8cc\L	8cc\L	4een\	.	4ccc\
8C/	.	8c\	.	.	.	.	.	.	.	.	.	8cc\	8cc\	.	.	.
*	*	*	*	*^	*	*	*	*	*	*	*	*	*	*	*	*
8C/	.	8c\	.	4een/	4cc\	.	4ccc 4een\	.	4g\	.	4g\	.	8cc\	8cc\	4ee\	.	4ccc\
8C/J	.	8c\J	.	.	.	.	.	.	.	.	.	.	8cc\J	8cc\J	.	.	.
*Xtremolo	*	*Xtremolo	*	*	*	*	*	*	*	*	*	*	*Xtremolo	*Xtremolo	*	*	*
!LO:LB:g=original	!	!	!	!	!	!	!	!	!	!	!	!	!	!	!	!	!
4C/	.	4c\	.	4ee/	4cc\	.	4ccc 4ee\	.	4g\	.	4g\	.	4cc\	4cc\	4ee\	.	4ccc\
4r	.	4r	.	4r	4ryy	.	4r	.	4r	.	4r	.	4r	4r	4r	.	4r
*	*	*	*	*v	*v	*	*	*	*	*	*	*	*	*	*	*	*
!	!	!	!	!LO:LB:g=original	!	!	!	!	!	!	!	!	!	!	!	!
=27	=27	=27	=27	=27	=27	=27	=27	=27	=27	=27	=27	=27	=27	=27	=27	=27
*	*	*tremolo	*	*	*	*	*	*	*	*	*	*	*	*	*	*
4F\	.	8f\L	.	1r	.	1r	.	[1f	.	[1f	.	00r	00r	00r	.	00r
.	.	8f\	.	.	.	.	.	.	.	.	.	.	.	.	.	.
4r	.	8f\	.	.	.	.	.	.	.	.	.	.	.	.	.	.
.	.	8f\J	.	.	.	.	.	.	.	.	.	.	.	.	.	.
2r	.	8f\L	.	.	.	.	.	.	.	.	.	.	.	.	.	.
.	.	8f\	.	.	.	.	.	.	.	.	.	.	.	.	.	.
.	.	8f\	.	.	.	.	.	.	.	.	.	.	.	.	.	.
.	.	8f\J	.	.	.	.	.	.	.	.	.	.	.	.	.	.
=28	=28	=28	=28	=28	=28	=28	=28	=28	=28	=28	=28	=28	=28	=28	=28	=28
00r	.	8f\L	.	2cc\	p	2aa\	p	1f_	.	1f_	.	.	.	.	.	.
.	.	8f\	.	.	.	.	.	.	.	.	.	.	.	.	.	.
.	.	8f\	.	.	.	.	.	.	.	.	.	.	.	.	.	.
.	.	8f\J	.	.	.	.	.	.	.	.	.	.	.	.	.	.
.	.	8f\L	.	(8dd\L	.	(8bb-\L	.	.	.	.	.	.	.	.	.	.
.	.	8f\	.	8cc\	.	8aa\	.	.	.	.	.	.	.	.	.	.
.	.	8f\	.	8dd\	.	8bb-\	.	.	.	.	.	.	.	.	.	.
.	.	8f\J	.	8b-\J)	.	8gg\J)	.	.	.	.	.	.	.	.	.	.
=29	=29	=29	=29	=29	=29	=29	=29	=29	=29	=29	=29	=29	=29	=29	=29	=29
.	.	8f\L	.	(8a\L	.	4.ff\	.	1f_	.	1f_	.	.	.	.	.	.
.	.	8f\	.	8cc\	.	.	.	.	.	.	.	.	.	.	.	.
.	.	8f\	.	8a\	.	.	.	.	.	.	.	.	.	.	.	.
.	.	8f\J	.	8cc\J)	.	8aa\	.	.	.	.	.	.	.	.	.	.
.	.	8f\L	.	(8a\L	.	(8ff\L	.	.	.	.	.	.	.	.	.	.
.	.	8f\	.	8cc\	.	8cc\)	.	.	.	.	.	.	.	.	.	.
.	.	8f\	.	8a\	.	8ff'\	.	.	.	.	.	.	.	.	.	.
.	.	8f\J	.	8cc\J)	.	8gg'\J	.	.	.	.	.	.	.	.	.	.
!	!	!LO:LB:g=original	!	!	!	!	!	!	!	!	!	!	!	!	!	!
=30	=30	=30	=30	=30	=30	=30	=30	=30	=30	=30	=30	=30	=30	=30	=30	=30
.	.	8f\L	.	2cc\	.	2aa\	.	1f_	.	1f_	.	.	.	.	.	.
.	.	8f\	.	.	.	.	.	.	.	.	.	.	.	.	.	.
.	.	8f\	.	.	.	.	.	.	.	.	.	.	.	.	.	.
.	.	8f\J	.	.	.	.	.	.	.	.	.	.	.	.	.	.
.	.	8f\L	.	(8dd\L	.	(8bb-\L	.	.	.	.	.	.	.	.	.	.
.	.	8f\	.	8cc\	.	8aa\	.	.	.	.	.	.	.	.	.	.
.	.	8f\	.	8dd\	.	8bb-\	.	.	.	.	.	.	.	.	.	.
.	.	8f\J	.	8b-\J)	.	8gg\J)	.	.	.	.	.	.	.	.	.	.
!	!	!	!	!	!	!LO:LB:g=original	!	!	!	!	!	!	!	!	!	!
=31	=31	=31	=31	=31	=31	=31	=31	=31	=31	=31	=31	=31	=31	=31	=31	=31
.	.	8f\L	.	(8a\L	.	(4.ff\	.	1f_	.	1f_	.	00r	00r	00r	.	00r
.	.	8f\	.	8cc\	.	.	.	.	.	.	.	.	.	.	.	.
.	.	8f\	.	8a\	.	.	.	.	.	.	.	.	.	.	.	.
.	.	8f\J	.	8cc\J)	.	8aa\	.	.	.	.	.	.	.	.	.	.
.	.	8f\L	.	4a\	.	4ff\)	.	.	.	.	.	.	.	.	.	.
.	.	8c\	.	.	.	.	.	.	.	.	.	.	.	.	.	.
.	.	8A\	.	4r	.	4r	.	.	.	.	.	.	.	.	.	.
.	.	8F\J	.	.	.	.	.	.	.	.	.	.	.	.	.	.
=32	=32	=32	=32	=32	=32	=32	=32	=32	=32	=32	=32	=32	=32	=32	=32	=32
!	!	!	!	!LO:TX:a:t=P:problem=takty 32-35 zapisane repetycją	!	!	!	!	!	!	!	!	!	!	!	!
00r	.	8f\L	.	2cc\yy	p	2aa\	.	1f_	.	1f_	.	.	.	.	.	.
.	.	8f\	.	.	.	.	.	.	.	.	.	.	.	.	.	.
.	.	8f\	.	.	.	.	.	.	.	.	.	.	.	.	.	.
.	.	8f\J	.	.	.	.	.	.	.	.	.	.	.	.	.	.
.	.	8f\L	.	(8dd\Lyy	.	(8bb-\L	.	.	.	.	.	.	.	.	.	.
.	.	8f\	.	8cc\yy	.	8aa\	.	.	.	.	.	.	.	.	.	.
.	.	8f\	.	8dd\yy	.	8bb-\	.	.	.	.	.	.	.	.	.	.
.	.	8f\J	.	8b-\J)yy	.	8gg\J)	.	.	.	.	.	.	.	.	.	.
=33	=33	=33	=33	=33	=33	=33	=33	=33	=33	=33	=33	=33	=33	=33	=33	=33
.	.	8f\L	.	(8a\Lyy	.	4.ff\	.	1f_	.	1f_	.	.	.	.	.	.
.	.	8f\	.	8cc\yy	.	.	.	.	.	.	.	.	.	.	.	.
.	.	8f\	.	8a\yy	.	.	.	.	.	.	.	.	.	.	.	.
.	.	8f\J	.	8cc\J)yy	.	8aa\	.	.	.	.	.	.	.	.	.	.
.	.	8f\L	.	(8a\Lyy	.	(8ff\L	.	.	.	.	.	.	.	.	.	.
.	.	8f\	.	8cc\yy	.	8cc\)	.	.	.	.	.	.	.	.	.	.
.	.	8f\	.	8a\yy	.	8ff'\	.	.	.	.	.	.	.	.	.	.
.	.	8f\J	.	8cc\J)yy	.	8gg'\J	.	.	.	.	.	.	.	.	.	.
=34	=34	=34	=34	=34	=34	=34	=34	=34	=34	=34	=34	=34	=34	=34	=34	=34
.	.	8f\L	.	2cc\yy	.	2aa\	.	1f_	.	1f_	.	.	.	.	.	.
.	.	8f\	.	.	.	.	.	.	.	.	.	.	.	.	.	.
.	.	8f\	.	.	.	.	.	.	.	.	.	.	.	.	.	.
.	.	8f\J	.	.	.	.	.	.	.	.	.	.	.	.	.	.
.	.	8f\L	.	(8dd\Lyy	.	(8bb-\L	.	.	.	.	.	.	.	.	.	.
.	.	8f\	.	8cc\yy	.	8aa\	.	.	.	.	.	.	.	.	.	.
.	.	8f\	.	8dd\yy	.	8bb-\	.	.	.	.	.	.	.	.	.	.
.	.	8f\J	.	8b-\J)yy	.	8gg\J)	.	.	.	.	.	.	.	.	.	.
=35	=35	=35	=35	=35	=35	=35	=35	=35	=35	=35	=35	=35	=35	=35	=35	=35
.	.	8f\L	.	(8a\Lyy	.	4.ff\	.	1f]	.	1f]	.	1r	1r	1r	.	1r
.	.	8f\	.	8cc\yy	.	.	.	.	.	.	.	.	.	.	.	.
.	.	8f\	.	8a\yy	.	.	.	.	.	.	.	.	.	.	.	.
.	.	8f\J	.	8cc\J)yy	.	8aa\	.	.	.	.	.	.	.	.	.	.
.	.	8f\L	.	4a\yy	.	4ff\	.	.	.	.	.	.	.	.	.	.
.	.	8a\	.	.	.	.	.	.	.	.	.	.	.	.	.	.
.	.	8a\	.	4ryy	.	4r	.	.	.	.	.	.	.	.	.	.
.	.	8a\J	.	.	.	.	.	.	.	.	.	.	.	.	.	.
!	!	!	!	!	!	!	!	!	!	!	!	!	!LO:LB:g=original	!	!	!
=36	=36	=36	=36	=36	=36	=36	=36	=36	=36	=36	=36	=36	=36	=36	=36	=36
*	*	*	*	*^	*	*^	*	*	*	*	*	*	*	*	*	*
!	!	!	!LO:DY:a:t=for	!	!	!	!	!	!	!	!	!	!	!	!	!	!	!
*	*	*	*	*tremolo	*tremolo	*	*	*	*	*	*	*	*	*	*	*	*	*
8C\L	.	8g\L	f	16een/LL	16cc\LL	.	2bb-/	2.cc\	.	2g\	.	2g\	.	8r	8r	(2een\	.	(2bb-\
.	.	.	.	16een/	16cc\	.	.	.	.	.	.	.	.	.	.	.	.	.
8C\	.	8g\	.	16een/	16cc\	.	.	.	.	.	.	.	.	8cc\L	8cc\L	.	.	.
.	.	.	.	16een/	16cc\	.	.	.	.	.	.	.	.	.	.	.	.	.
8En\	.	8g\	.	16een/	16cc\	.	.	.	.	.	.	.	.	8cc\	8cc\	.	.	.
.	.	.	.	16een/	16cc\	.	.	.	.	.	.	.	.	.	.	.	.	.
8C\J	.	8g\J	.	16een/	16cc\	.	.	.	.	.	.	.	.	8cc\J	8cc\J	.	.	.
.	.	.	.	16een/JJ	16cc\JJ	.	.	.	.	.	.	.	.	.	.	.	.	.
8F\L	.	8f\L	.	16ff/LL	16cc\LL	.	4aa/	.	.	4f\	.	4f\	.	4f/	4cc\	4ff\)	.	4aa\)
.	.	.	.	16ff/	16cc\	.	.	.	.	.	.	.	.	.	.	.	.	.
8C\	.	8a\	.	16ff/	16cc\	.	.	.	.	.	.	.	.	.	.	.	.	.
.	.	.	.	16ff/	16cc\	.	.	.	.	.	.	.	.	.	.	.	.	.
8AA\	.	8cc\	.	16ff/	16cc\	.	4ryy	4r	.	4r	.	4r	.	4r	4r	4r	.	4r
.	.	.	.	16ff/	16cc\	.	.	.	.	.	.	.	.	.	.	.	.	.
8FF\J	.	8a\J	.	16ff/	16cc\	.	.	.	.	.	.	.	.	.	.	.	.	.
.	.	.	.	16ff/JJ	16cc\JJ	.	.	.	.	.	.	.	.	.	.	.	.	.
!	!	!	!	!	!	!	!	!	!	!LO:LB:g=original	!	!	!	!	!	!	!	!LO:LB:g=original
=37	=37	=37	=37	=37	=37	=37	=37	=37	=37	=37	=37	=37	=37	=37	=37	=37	=37	=37
!	!	!	!	!LO:SIC:s=2ee:v:cała grupa	!	!	!LO:TX:a:t=P:problem=takt zapisany repetycją	!LO:TX:a:t=P:problem=takt zapisany repetycją	!	!	!	!	!	!	!	!LO:SIC:s=2een:v	!	!
8C\L	.	8g\L	.	16ee-/LL	16cc\LL	.	2bb-/yy	2.cc\yy	.	2g\	.	2g\	.	8r	8r	2ee-\	.	(2bb-\
.	.	.	.	16ee-/	16cc\	.	.	.	.	.	.	.	.	.	.	.	.	.
8C\	.	8g\	.	16ee-/	16cc\	.	.	.	.	.	.	.	.	8cc\L	8cc\L	.	.	.
.	.	.	.	16ee-/	16cc\	.	.	.	.	.	.	.	.	.	.	.	.	.
8En\	.	8g\	.	16ee-/	16cc\	.	.	.	.	.	.	.	.	8cc\	8cc\	.	.	.
.	.	.	.	16ee-/	16cc\	.	.	.	.	.	.	.	.	.	.	.	.	.
8C\J	.	8g\J	.	16ee-/	16cc\	.	.	.	.	.	.	.	.	8cc\J	8cc\J	.	.	.
*	*	*Xtremolo	*	*	*	*	*	*	*	*	*	*	*	*	*	*	*	*
.	.	.	.	16ee-/JJ	16cc\JJ	.	.	.	.	.	.	.	.	.	.	.	.	.
8F\L	.	8f\L	.	16ff/LL	16cc\LL	.	4aa/yy	.	.	4f\	.	4f\	.	4f/	4cc\	4ff\	.	4aa\)
.	.	.	.	16ff/	16cc\	.	.	.	.	.	.	.	.	.	.	.	.	.
8C\	.	8a\	.	16ff/	16cc\	.	.	.	.	.	.	.	.	.	.	.	.	.
.	.	.	.	16ff/	16cc\	.	.	.	.	.	.	.	.	.	.	.	.	.
8AA\	.	8cc\	.	16ff/	16cc\	.	4ryy	4ryy	.	4r	.	4r	.	4r	4r	4r	.	4r
.	.	.	.	16ff/	16cc\	.	.	.	.	.	.	.	.	.	.	.	.	.
8FF\J	.	8a\J	.	16ff/	16cc\	.	.	.	.	.	.	.	.	.	.	.	.	.
.	.	.	.	16ff/JJ	16cc\JJ	.	.	.	.	.	.	.	.	.	.	.	.	.
*	*	*	*	*v	*v	*	*	*	*	*	*	*	*	*	*	*	*	*
*	*	*	*	*	*	*v	*v	*	*	*	*	*	*	*	*	*	*
!	!	!	!	!	!	!	!	!	!	!LO:LB:g=original	!	!	!	!LO:LB:g=original	!	!
=38	=38	=38	=38	=38	=38	=38	=38	=38	=38	=38	=38	=38	=38	=38	=38	=38
!LO:TX:a:t=P:problem=mixed beam	!	!LO:TX:a:t=P:problem=mixed beam	!	!	!	!	!	!	!	!	!	!	!	!	!	!
8BB-/L	.	8b-\L	.	8ff\	.	4.ddd\	.	4B-/	.	4f\	.	4f/	4dd\	1ff	.	4.ddd\
8B-'>\	.	8B-/	.	4ff\	.	.	.	.	.	.	.	.	.	.	.	.
8B-'>\	.	8b-\	.	.	.	.	.	4r	.	4r	.	4r	4r	.	.	.
8A'>\J	.	8a\J	.	4ff\	.	8ccc#X\	.	.	.	.	.	.	.	.	.	8ccc#X\
8B-'\L	.	8b-\L	.	.	.	8ddd\L	.	2r	.	2r	.	2r	2r	.	.	8ddd\L
8A'\	.	8a\	.	4ff\	.	8ccc#\	.	.	.	.	.	.	.	.	.	8ccc#\
8B-'\	.	8b-\	.	.	.	8ddd\	.	.	.	.	.	.	.	.	.	8ddd\
8A'\J	.	8a\J	.	[8ff\	.	8ccc#\J	.	.	.	.	.	.	.	.	.	8ccc#\J
!	!	!	!	!	!	!	!	!	!	!	!	!LO:LB:g=original	!	!	!	!
=39	=39	=39	=39	=39	=39	=39	=39	=39	=39	=39	=39	=39	=39	=39	=39	=39
!	!	!LO:TX:a:t=P:problem=mixed beam	!	!	!	!	!	!	!	!	!	!	!	!	!	!
8B-\L	.	8b-\L	.	8ff\]	.	4.ddd\	.	4B-/	.	4f\	.	4f/	4dd\	1ff	.	4.ddd\
8B-\	.	8B-\	.	4ff\	.	.	.	.	.	.	.	.	.	.	.	.
8B-\	.	8b-\	.	.	.	.	.	4r	.	4r	.	4r	4r	.	.	.
!	!	!	!	!	!	!LO:SIC:s=8ccc#:v	!	!	!	!	!	!	!	!	!	!
8A\J	.	8a\J	.	4ff\	.	8ccc\	.	.	.	.	.	.	.	.	.	8ccc#X\
8B-\L	.	8b-\L	.	.	.	8ddd\L	.	2r	.	2r	.	2r	2r	.	.	8ddd\L
!	!	!	!	!	!	!LO:SIC:s=8ccc#:v	!	!	!	!	!	!	!	!	!	!
8A\	.	8a\	.	4ff\	.	8ccc\	.	.	.	.	.	.	.	.	.	8ccc#\
8B-\	.	8b-\	.	.	.	8ddd\	.	.	.	.	.	.	.	.	.	8ddd\
!	!	!	!	!	!	!LO:SIC:s=8ccc#:v	!	!	!	!	!	!	!	!	!	!
8A\J	.	8a\J	.	8ff\	.	8ccc\J	.	.	.	.	.	.	.	.	.	8ccc#\J
=40	=40	=40	=40	=40	=40	=40	=40	=40	=40	=40	=40	=40	=40	=40	=40	=40
4B-\	.	4b-\	.	16ff\LL	.	4ddd\	.	4B-/	.	4f\	.	4f/	4dd\	1ff	.	4ddd\
.	.	.	.	16ff\	.	.	.	.	.	.	.	.	.	.	.	.
.	.	.	.	16ff\	.	.	.	.	.	.	.	.	.	.	.	.
.	.	.	.	16ff\	.	.	.	.	.	.	.	.	.	.	.	.
*	*	*	*	*	*	*tremolo	*	*	*	*	*	*	*	*	*	*
4r	.	4r	.	16ff\	.	16bb-\LL	.	4r	.	4r	.	4r	4r	.	.	4bb-\
.	.	.	.	16ff\	.	16bb-\	.	.	.	.	.	.	.	.	.	.
.	.	.	.	16ff\	.	16bb-\	.	.	.	.	.	.	.	.	.	.
.	.	.	.	16ff\JJ	.	16bb-\JJ	.	.	.	.	.	.	.	.	.	.
4B-\	.	4B-/	.	16ff\LL	.	16gg\LL	.	2r	.	2r	.	4r	4r	.	.	4gg\
.	.	.	.	16ff\	.	16gg\	.	.	.	.	.	.	.	.	.	.
.	.	.	.	16ff\	.	16gg\	.	.	.	.	.	.	.	.	.	.
.	.	.	.	16ff\	.	16gg\JJ	.	.	.	.	.	.	.	.	.	.
4r	.	4r	.	16ff\	.	16dd\LL	.	.	.	.	.	4b-\	4dd\	.	.	4dd\
.	.	.	.	16ff\	.	16dd\	.	.	.	.	.	.	.	.	.	.
.	.	.	.	16ff\	.	16dd\	.	.	.	.	.	.	.	.	.	.
.	.	.	.	16ff\JJ	.	16dd\JJ	.	.	.	.	.	.	.	.	.	.
*	*	*	*	*	*	*Xtremolo	*	*	*	*	*	*	*	*	*	*
!	!	!LO:LB:g=original	!	!LO:LB:g=original	!	!LO:LB:g=original	!	!	!	!	!	!	!	!	!	!
=41	=41	=41	=41	=41	=41	=41	=41	=41	=41	=41	=41	=41	=41	=41	=41	=41
(2c\	.	(2c\	.	16ff\LL	.	8cc\	.	[1f	.	[1f	.	2cc\	2cc\	2ff\	.	8cc\
.	.	.	.	16ff\	.	.	.	.	.	.	.	.	.	.	.	.
.	.	.	.	16ff\	.	4ccc\	.	.	.	.	.	.	.	.	.	4ccc\
.	.	.	.	16ff\	.	.	.	.	.	.	.	.	.	.	.	.
.	.	.	.	16ff\	.	.	.	.	.	.	.	.	.	.	.	.
.	.	.	.	16ff\	.	.	.	.	.	.	.	.	.	.	.	.
.	.	.	.	16ff\	.	4aa\	.	.	.	.	.	.	.	.	.	4aa\
.	.	.	.	16ff\JJ	.	.	.	.	.	.	.	.	.	.	.	.
2d\)	.	2d\)	.	16ff\LL	.	.	.	.	.	.	.	2dd\	2dd\	[2ff\	.	.
.	.	.	.	16ff\	.	.	.	.	.	.	.	.	.	.	.	.
.	.	.	.	16ff\	.	4ff\	.	.	.	.	.	.	.	.	.	4ff\
.	.	.	.	16ff\	.	.	.	.	.	.	.	.	.	.	.	.
.	.	.	.	16ff\	.	.	.	.	.	.	.	.	.	.	.	.
.	.	.	.	16ff\	.	.	.	.	.	.	.	.	.	.	.	.
.	.	.	.	16ff\	.	8ddn 8b-\	.	.	.	.	.	.	.	.	.	8bn\
.	.	.	.	16ff\JJ	.	.	.	.	.	.	.	.	.	.	.	.
=42	=42	=42	=42	=42	=42	=42	=42	=42	=42	=42	=42	=42	=42	=42	=42	=42
*tremolo	*	*tremolo	*	*	*	*	*	*	*	*	*	*	*	*	*	*
8c\L	.	8c\L	.	16ff\LL	.	2cc\	.	2f\]	.	2f\]	.	1cc	1cc	2ff\]	.	2cc\
.	.	.	.	16ff\	.	.	.	.	.	.	.	.	.	.	.	.
8c\	.	8c\	.	16ff\	.	.	.	.	.	.	.	.	.	.	.	.
.	.	.	.	16ff\	.	.	.	.	.	.	.	.	.	.	.	.
8c\	.	8c\	.	16ff\	.	.	.	.	.	.	.	.	.	.	.	.
.	.	.	.	16ff\	.	.	.	.	.	.	.	.	.	.	.	.
8c\J	.	8c\J	.	16ff\	.	.	.	.	.	.	.	.	.	.	.	.
.	.	.	.	16ff\JJ	.	.	.	.	.	.	.	.	.	.	.	.
!LO:LB:g=original	!	!	!	!	!	!	!	!	!	!	!	!	!	!	!	!
8C/L	.	8c\L	.	16een\LL	.	2ggM\	.	2g\	.	2g\	.	.	.	2een\	.	2ggM\
.	.	.	.	16een\	.	.	.	.	.	.	.	.	.	.	.	.
8C/	.	8c\	.	16een\	.	.	.	.	.	.	.	.	.	.	.	.
.	.	.	.	16een\	.	.	.	.	.	.	.	.	.	.	.	.
8C/	.	8c\	.	16een\	.	.	.	.	.	.	.	.	.	.	.	.
.	.	.	.	16een\	.	.	.	.	.	.	.	.	.	.	.	.
8C/J	.	8c\J	.	16een\	.	.	.	.	.	.	.	.	.	.	.	.
.	.	.	.	16een\JJ	.	.	.	.	.	.	.	.	.	.	.	.
*	*	*	*	*Xtremolo	*	*	*	*	*	*	*	*	*	*	*	*
=43	=43	=43	=43	=43	=43	=43	=43	=43	=43	=43	=43	=43	=43	=43	=43	=43
4F\	.	4d\	.	8ff\L	.	8ffL 8a/	.	4f\	.	4f\	.	4f/	4cc\	8ff\L	.	8ff\L
.	.	.	.	8a\	.	8ff/	.	.	.	.	.	.	.	8a\	.	8ff\
4r	.	4r	.	8a\	.	8ff/	.	4r	.	4r	.	4r	4r	8a\	.	8ff\
.	.	.	.	8a\J	.	8ff/J	.	.	.	.	.	.	.	8a\J	.	8ff\J
4F\	.	4d\	.	8a\L	.	8ff\L	.	4f\	.	4f\	.	4f/	4cc\	8a\L	.	8ff\L
.	.	.	.	8a\J	.	8ff\J	.	.	.	.	.	.	.	8a\J	.	8ff\J
.	.	.	.	8qqcc/	.	8qqaa/	.	.	.	.	.	.	.	8qqcc/	.	8qqaa/
4C/	.	4d\	.	8b-\L	.	8gg\L	.	4g\	.	4g\	.	4cc\	4cc\	8b-\L	.	8gg\L
.	.	.	.	16a\L	.	16ff\L	.	.	.	.	.	.	.	16a\L	.	16ff\L
.	.	.	.	16g\JJ	.	16een\JJ	.	.	.	.	.	.	.	16g\JJ	.	16een\JJ
=44	=44	=44	=44	=44	=44	=44	=44	=44	=44	=44	=44	=44	=44	=44	=44	=44
*	*	*	*	*	*	*tremolo	*	*	*	*	*	*	*	*tremolo	*	*tremolo
!	!	!	!	!LO:TX:a:t=P:problem=takt zapisany repetycją	!	!	!	!	!	!	!	!	!	!	!	!
4F\	.	4d\	.	8ff\Lyy	.	8ff\L	.	4f\	.	4f\	.	4f/	4cc\	8a\L	.	8ff\L
.	.	.	.	8a\yy	.	8ff\	.	.	.	.	.	.	.	8a\	.	8ff\
4r	.	4r	.	8a\yy	.	8ff\	.	4r	.	4r	.	4r	4r	8a\	.	8ff\
.	.	.	.	8a\Jyy	.	8ff\J	.	.	.	.	.	.	.	8a\J	.	8ff\J
*	*	*	*	*	*	*Xtremolo	*	*	*	*	*	*	*	*Xtremolo	*	*Xtremolo
4F\	.	4c\	.	8a\Lyy	.	8ff\L	.	4f\	.	4f\	.	4f/	4cc\	8a\L	.	8ff\L
.	.	.	.	8a\Jyy	.	8ff\J	.	.	.	.	.	.	.	8a\J	.	8ff\J
!	!	!	!	!	!	!	!	!	!	!	!	!	!	!	!	!LO:LB:g=original
.	.	.	.	8qqcc/yy	.	8qqaa/	.	.	.	.	.	.	.	8qqcc/	.	8qqaa/
4C/	.	4c\	.	8b-\Lyy	.	8gg\L	.	4g\	.	4g\	.	4cc\	4cc\	8b-\L	.	8gg\L
.	.	.	.	16a\Lyy	.	16ff\L	.	.	.	.	.	.	.	16a\L	.	16ff\L
.	.	.	.	16g\JJyy	.	16een\JJ	.	.	.	.	.	.	.	16g\JJ	.	16ee-\JJ
=45	=45	=45	=45	=45	=45	=45	=45	=45	=45	=45	=45	=45	=45	=45	=45	=45
!	!	!	!	!LO:TX:a:t=P:problem=skreślony takt	!	!	!	!	!	!	!	!	!	!	!	!
8F\L	.	4c\	.	4a/	.	4ff\	.	4f\	.	4f\	.	4f/	4cc\	4a\	.	4ff\
8F\	.	.	.	.	.	.	.	.	.	.	.	.	.	.	.	.
8F\	.	8r	.	8r	.	8r	.	8r	.	8r	.	8r	8r	8r	.	8r
8F\J	.	8f\	.	8cc\	.	8aa\	.	8f\	.	8f\	.	8f/	8cc\	8r	.	8aa\
!	!	!	!	!	!	!	!	!	!	!	!	!	!LO:LB:g=original	!	!	!
*	*	*	*	*	*	*tremolo	*	*tremolo	*	*tremolo	*	*tremolo	*tremolo	*tremolo	*	*tremolo
8F\L	.	8f\L	.	8aL/	.	8ff 8a/L	.	8f\L	.	8f\L	.	8f/L	8cc\L	8a/L	.	8ff\L
8F\	.	8f\	.	8a 8f/	.	8ff 8a/	.	8f\	.	8f\	.	8f/	8cc\	8a/	.	8ff\
8F\	.	8f\	.	8a 8f/	.	8ff 8a/	.	8f\	.	8f\	.	8f/	8cc\	8a/	.	8ff\
8F\J	.	8f\J	.	8aJ 8f/	.	8ff 8a/J	.	8f\J	.	8f\J	.	8f/J	8cc\J	8a/J	.	8ff\J
*Xtremolo	*	*	*	*	*	*Xtremolo	*	*Xtremolo	*	*Xtremolo	*	*Xtremolo	*Xtremolo	*Xtremolo	*	*Xtremolo
=46	=46	=46	=46	=46	=46	=46	=46	=46	=46	=46	=46	=46	=46	=46	=46	=46
4F\	.	4f\	.	8aL 8f/	.	4ff 4a/	.	4f\	.	4f\	.	4f/	4cc\	4a/	.	4ff\
.	.	.	.	8f/	p	.	.	.	.	.	.	.	.	.	.	.
4r	.	4r	.	8f/	.	4r	.	4r	.	4r	.	4r	4r	4r	.	4r
.	.	.	.	8f/J	.	.	.	.	.	.	.	.	.	.	.	.
*	*	*	*	*tremolo	*	*	*	*	*	*	*	*	*	*	*	*
2r	.	2r	.	8f/L	.	2r	.	2r	.	2r	.	2r	2r	2r	.	2r
.	.	.	.	8f/	.	.	.	.	.	.	.	.	.	.	.	.
.	.	.	.	8f/	.	.	.	.	.	.	.	.	.	.	.	.
.	.	.	.	8f/J	.	.	.	.	.	.	.	.	.	.	.	.
=47	=47	=47	=47	=47	=47	=47	=47	=47	=47	=47	=47	=47	=47	=47	=47	=47
*	*	*^	*	*	*	*	*	*	*	*	*	*	*	*	*	*
0r	.	4.f/	4.d\	.	8f/L	.	0r	.	0r	.	0r	.	0r	0r	4.dd\	.	4.ff\
.	.	.	.	.	8f/	.	.	.	.	.	.	.	.	.	.	.	.
.	.	.	.	.	8f/	.	.	.	.	.	.	.	.	.	.	.	.
.	.	8e-X/	8c\	.	8f/J	.	.	.	.	.	.	.	.	.	8cc\	.	8ee-\
.	.	4d/	4B-\	.	8f/L	.	.	.	.	.	.	.	.	.	4b-\	.	4dd\
.	.	.	.	.	8f/	.	.	.	.	.	.	.	.	.	.	.	.
.	.	4r	4ryy	.	8f/	.	.	.	.	.	.	.	.	.	4r	.	4r
.	.	.	.	.	8f/J	.	.	.	.	.	.	.	.	.	.	.	.
!	!	!	!	!	!	!	!	!	!	!	!	!	!	!	!LO:LB:g=original	!	!
=48	=48	=48	=48	=48	=48	=48	=48	=48	=48	=48	=48	=48	=48	=48	=48	=48	=48
.	.	4.e-/	4.c\	.	8f/L	.	.	.	.	.	.	.	.	.	4.cc\	.	4.ee-\
.	.	.	.	.	8f/	.	.	.	.	.	.	.	.	.	.	.	.
.	.	.	.	.	8f/	.	.	.	.	.	.	.	.	.	.	.	.
.	.	8d/	8B-\	.	8f/J	.	.	.	.	.	.	.	.	.	8b-\	.	8dd\
.	.	4c/	4A\	.	8f/L	.	.	.	.	.	.	.	.	.	4a\	.	4cc\
.	.	.	.	.	8f/	.	.	.	.	.	.	.	.	.	.	.	.
.	.	4r	4ryy	.	8f/	.	.	.	.	.	.	.	.	.	4r	.	4r
.	.	.	.	.	8f/J	.	.	.	.	.	.	.	.	.	.	.	.
*	*	*v	*v	*	*	*	*	*	*	*	*	*	*	*	*	*	*
=49	=49	=49	=49	=49	=49	=49	=49	=49	=49	=49	=49	=49	=49	=49	=49	=49
!	!	!	!	!LO:TX:a:t=P:problem=mixed beam	!	!	!	!	!	!	!	!	!	!	!	!
8r	.	8B-/L	.	16a/LL	f	4dd 4f/	.	8r	.	8r	.	4r	4r	4b-\	f	4b-\
.	.	.	.	16ff\	.	.	.	.	.	.	.	.	.	.	.	.
8BB-/L	.	8B-/	.	16ff\	.	.	.	8f\L	.	8f\L	.	.	.	.	.	.
.	.	.	.	16ff\JJ	.	.	.	.	.	.	.	.	.	.	.	.
8D/	.	8d/	.	16ff\LL	.	4bb- 4dd 4f/	.	8f\	.	8f\	.	4b-\	4dd\	4dd\	.	4bb-\
.	.	.	.	16ff\	.	.	.	.	.	.	.	.	.	.	.	.
8BB-/J	.	8B-/J	.	16ff\	.	.	.	8f\J	.	8f\J	.	.	.	.	.	.
.	.	.	.	16ff\JJ	.	.	.	.	.	.	.	.	.	.	.	.
*	*	*	*	*	*	*	*	*tremolo	*	*tremolo	*	*	*	*	*	*
!LO:TX:a:t=P:problem=mixed beam	!	!LO:TX:a:t=P:problem=mixed beam	!	!	!	!	!	!	!	!	!	!	!	!	!	!
8FF/L	.	8F/L	.	16ff\LL	.	4aa 4cc 4f/	.	8f\L	.	8f\L	.	4f/	4cc\	4cc\	.	4aa\
.	.	.	.	16ff\	.	.	.	.	.	.	.	.	.	.	.	.
8F\	.	8f\	.	16ff\	.	.	.	8f\	.	8f\	.	.	.	.	.	.
.	.	.	.	16ff\	.	.	.	.	.	.	.	.	.	.	.	.
8D\	.	8d\	.	16ff\	.	4bb- 4dd 4f/	.	8f\	.	8f\	.	4b-\	4dd\	4dd\	.	4bb-\
.	.	.	.	16ff\	.	.	.	.	.	.	.	.	.	.	.	.
8BB-\J	.	8B-\J	.	16ff\	.	.	.	8f\J	.	8f\J	.	.	.	.	.	.
.	.	.	.	16ff\JJ	.	.	.	.	.	.	.	.	.	.	.	.
*	*	*	*	*	*	*	*	*Xtremolo	*	*Xtremolo	*	*	*	*	*	*
!	!	!	!	!LO:LB:g=original	!	!	!	!	!	!	!	!	!	!	!	!
=50	=50	=50	=50	=50	=50	=50	=50	=50	=50	=50	=50	=50	=50	=50	=50	=50
!	!	!LO:TX:a:t=P:problem=mixed beam	!	!	!	!	!	!	!	!	!	!	!	!	!	!
4FF/	.	8F/L	.	4ff\	.	4aa 4cc 4f/	.	4f\	.	4f\	.	4f/	4cc\	4cc\	.	4aa\
.	.	8f\	.	.	.	.	.	.	.	.	.	.	.	.	.	.
4r	.	8f\	.	4r	.	4r	.	4r	.	4r	.	4r	4r	4r	.	4r
.	.	8f\J	.	.	.	.	.	.	.	.	.	.	.	.	.	.
2r	.	2f\	.	2r	.	2r	.	2r	.	2r	.	2r	2r	2r	.	2r
!	!	!	!	!	!	!	!	!LO:LB:g=original	!	!LO:LB:g=original	!	!	!	!	!	!
=51	=51	=51	=51	=51	=51	=51	=51	=51	=51	=51	=51	=51	=51	=51	=51	=51
!	!	!	!	!	!	!	!	!	!	!	!	!	!	!	!	!LO:TX:a:t=P:problem=takty 51-54 zapisane repetycją
0r	.	8f\L	.	(4.d/	p	4.f/	p	0r	.	0r	.	0r	0r	4.dd\	p	4.ff\yy
.	.	8f\	.	.	.	.	.	.	.	.	.	.	.	.	.	.
.	.	8f\	.	.	.	.	.	.	.	.	.	.	.	.	.	.
.	.	8f\J	.	8c/	.	8e-X/	.	.	.	.	.	.	.	8cc\	.	8ee-\yy
.	.	8f\L	.	4B-/)	.	4d/	.	.	.	.	.	.	.	4b-\	.	4dd\yy
.	.	8f\	.	.	.	.	.	.	.	.	.	.	.	.	.	.
.	.	8f\	.	4r	.	4r	.	.	.	.	.	.	.	4r	.	4ryy
.	.	8f\J	.	.	.	.	.	.	.	.	.	.	.	.	.	.
=52	=52	=52	=52	=52	=52	=52	=52	=52	=52	=52	=52	=52	=52	=52	=52	=52
.	.	8f\L	.	4.c/	.	4.e-/	.	.	.	.	.	.	.	4.cc\	.	4.ee-\yy
.	.	8f\	.	.	.	.	.	.	.	.	.	.	.	.	.	.
.	.	8f\	.	.	.	.	.	.	.	.	.	.	.	.	.	.
.	.	8f\J	.	8B-/	.	8d/	.	.	.	.	.	.	.	8b-\	.	8dd\yy
.	.	8f\L	.	4A/	.	4c/	.	.	.	.	.	.	.	4a\	.	4cc\yy
.	.	8f\	.	.	.	.	.	.	.	.	.	.	.	.	.	.
.	.	8f\	.	4r	.	4r	.	.	.	.	.	.	.	4r	.	4ryy
.	.	8f\J	.	.	.	.	.	.	.	.	.	.	.	.	.	.
*	*	*Xtremolo	*	*	*	*	*	*	*	*	*	*	*	*	*	*
!	!	!LO:LB:g=original	!	!	!	!LO:LB:g=original	!	!	!	!	!	!	!	!	!	!
=53	=53	=53	=53	=53	=53	=53	=53	=53	=53	=53	=53	=53	=53	=53	=53	=53
8r	.	8f\L	.	4B-/	.	4d/	.	8r	.	8r	.	4r	4r	4b-\	f	4b-\yy
8BB-/L	.	8c\	.	.	.	.	.	8f\L	.	8f\L	.	.	.	.	.	.
8D/	.	8d\	.	16ff\LL	f	4bb- 4dd 4f/	f	8f\	.	8f\	.	4b-\	4dd\	4dd\	.	4bb-\yy
.	.	.	.	16ff\	.	.	.	.	.	.	.	.	.	.	.	.
8BB-/J	.	8B-\J	.	16ff\	.	.	.	8f\J	.	8f\J	.	.	.	.	.	.
.	.	.	.	16ff\JJ	.	.	.	.	.	.	.	.	.	.	.	.
!LO:TX:a:t=P:problem=mixed beam	!	!LO:TX:a:t=P:problem=mixed beam	!	!	!	!	!	!	!	!	!	!	!	!	!	!
*	*	*	*	*	*	*	*	*tremolo	*	*tremolo	*	*	*	*	*	*
8FF/L	.	8F/L	.	16ff\LL	.	4aa 4cc 4f/	.	8f\L	.	8f\L	.	4f/	4cc\	4cc\	.	4aa\yy
.	.	.	.	16ff\	.	.	.	.	.	.	.	.	.	.	.	.
8F\	.	8f\	.	16ff\	.	.	.	8f\	.	8f\	.	.	.	.	.	.
.	.	.	.	16ff\	.	.	.	.	.	.	.	.	.	.	.	.
8D\	.	8d\	.	16ff\	.	4bb- 4dd 4f/	.	8f\	.	8f\	.	4b-\	4dd\	4dd\	.	4bb-\yy
.	.	.	.	16ff\	.	.	.	.	.	.	.	.	.	.	.	.
8BB-\J	.	8B-\J	.	16ff\	.	.	.	8f\J	.	8f\J	.	.	.	.	.	.
.	.	.	.	16ff\JJ	.	.	.	.	.	.	.	.	.	.	.	.
*	*	*	*	*Xtremolo	*	*	*	*Xtremolo	*	*Xtremolo	*	*	*	*	*	*
!	!	!	!	!	!	!	!	!	!	!	!	!LO:LB:g=original	!	!	!	!
=54	=54	=54	=54	=54	=54	=54	=54	=54	=54	=54	=54	=54	=54	=54	=54	=54
4FF/	.	4F/	.	4ff\	.	4aa 4cc 4f/	.	4f\	.	4f\	.	4f/	4cc\	4cc\	.	4aa\yy
4r	.	4r	.	4r	.	4r	.	4r	.	4r	.	4r	4r	4r	.	4ryy
.	.	.	.	.	.	.	p	.	.	.	.	.	.	.	.	.
2r	.	2r	.	8f/L	p	8a\L	.	2r	.	2r	.	2r	2r	2r	.	2ryy
.	.	.	.	8f/J	.	8a\J	.	.	.	.	.	.	.	.	.	.
.	.	.	.	(8.g/L	.	(8.b-\L	.	.	.	.	.	.	.	.	.	.
.	.	.	.	32f/LL	.	32a\LL	.	.	.	.	.	.	.	.	.	.
.	.	.	.	32g/JJJ)	.	32b-\JJJ)	.	.	.	.	.	.	.	.	.	.
!LO:LB:g=original	!	!	!	!	!	!	!	!	!	!	!	!	!	!	!	!
=55	=55	=55	=55	=55	=55	=55	=55	=55	=55	=55	=55	=55	=55	=55	=55	=55
0r	.	0r	.	4a/	.	4cc\	.	0r	.	0r	.	0r	0r	0r	.	0r
.	.	.	.	4r	.	4r	.	.	.	.	.	.	.	.	.	.
.	.	.	.	8a/L	.	8cc\L	.	.	.	.	.	.	.	.	.	.
.	.	.	.	8a/J	.	8cc\J	.	.	.	.	.	.	.	.	.	.
.	.	.	.	(8.b-\L	.	(8.dd\L	.	.	.	.	.	.	.	.	.	.
.	.	.	.	32a\LL	.	32cc\LL	.	.	.	.	.	.	.	.	.	.
.	.	.	.	32b-\JJJ)	.	32dd\JJJ)	.	.	.	.	.	.	.	.	.	.
=56	=56	=56	=56	=56	=56	=56	=56	=56	=56	=56	=56	=56	=56	=56	=56	=56
.	.	.	.	4cc\	.	4ee-\	.	.	.	.	.	.	.	.	.	.
.	.	.	.	4r	.	4r	.	.	.	.	.	.	.	.	.	.
.	.	.	.	8cc\L	.	8ee-\L	.	.	.	.	.	.	.	.	.	.
.	.	.	.	8cc\J	.	8ee-\J	.	.	.	.	.	.	.	.	.	.
.	.	.	.	(8.dd\L	.	(8.ff\L	.	.	.	.	.	.	.	.	.	.
.	.	.	.	32cc\LL	.	32ee-\LL	.	.	.	.	.	.	.	.	.	.
.	.	.	.	32dd\JJJ)	.	32ff\JJJ)	.	.	.	.	.	.	.	.	.	.
=57	=57	=57	=57	=57	=57	=57	=57	=57	=57	=57	=57	=57	=57	=57	=57	=57
1r	.	4r	.	4ee-\	.	4gg\	.	1r	.	1r	.	1r	1r	4r	.	4r
.	.	4b-\	.	8dd\L	.	8ff'\L	.	.	.	.	.	.	.	4dd\	p	4ff\
.	.	.	.	8dd\J	.	8ff'\J	.	.	.	.	.	.	.	.	.	.
.	.	4e-\	.	8ee-\L	.	8gg'\L	.	.	.	.	.	.	.	4ee-\	.	4gg\
.	.	.	.	8ee-\J	.	8gg'\J	.	.	.	.	.	.	.	.	.	.
.	.	4f\	.	8.cc\L	.	(8.aa\L	.	.	.	.	.	.	.	4cc\	.	4aa\
.	.	.	.	32b-\LL	.	32gg\LL	.	.	.	.	.	.	.	.	.	.
.	.	.	.	32cc\JJJ	.	32aa\JJJ)	.	.	.	.	.	.	.	.	.	.
!	!	!	!	!LO:LB:g=original	!	!	!	!	!	!	!	!	!	!	!	!
=58	=58	=58	=58	=58	=58	=58	=58	=58	=58	=58	=58	=58	=58	=58	=58	=58
4B-\	.	4b-\	.	4b- 4d/	f	4bb- 4b- 4d/	f	4B-/	.	4b-\	.	4d/	4b-/	4bb-\	f	4bb-\
4F\	.	4f\	.	4f/	.	4ff 4b- 4d/	.	4f\	.	4f\	.	4f/	4f/	4ff\	.	4ff\
4D\	.	4d\	.	4d/	.	4dd 4d/	.	4B-/	.	4f\	.	4d/	4d/	4dd\	.	4dd\
4r	.	4r	.	4r	.	4r	.	4r	.	4r	.	4r	4r	4r	.	4r
!	!	!	!	!	!	!	!	!	!	!	!	!	!	!LO:LB:g=original	!	!
=59	=59	=59	=59	=59	=59	=59	=59	=59	=59	=59	=59	=59	=59	=59	=59	=59
8BB-\L	.	8B-\L	.	8B-/L	.	8b-\L	.	4B-/	.	4B-/	.	8B-/L	8b-\L	8b-\L	.	8b-\L
16D\L	.	16d\	.	16d/L	.	16dd\L	.	.	.	.	.	8d/	8dd\	16dd\L	.	16dd\L
16E-\J	.	16e-\	.	16e-/J	.	16ee-\JJ	.	.	.	.	.	.	.	16ee-\J	.	16ee-\J
8F\	.	8f\	.	8f/	.	8ff\L	.	8f\L	.	8f\L	.	8f/	8ff\	8ff\	.	8ff\
8F\J	.	8f\J	.	8f/J	.	8ff\J	.	8f\J	.	8f\J	.	8f/J	8ff\J	8ff\J	.	8ff\J
!	!	!	!	!	!	!	!	!	!	!	!	!	!	!	!	!LO:LB:g=original
4F\	.	4f\	.	4f/	.	4ff\	.	4f\	.	4f\	.	4f/	4ff\	4ff\	.	4ff\
4r	.	4r	.	4r	.	4r	.	4r	.	4r	.	4r	4r	4r	.	4r
!	!	!	!	!	!	!LO:LB:g=original	!	!	!	!	!	!	!	!	!	!
=60	=60	=60	=60	=60	=60	=60	=60	=60	=60	=60	=60	=60	=60	=60	=60	=60
00r	.	00r	.	(8c/L	p	4.ee-\	.	00r	.	00r	.	00r	00r	00r	.	00r
.	.	.	.	8e-/)	.	.	.	.	.	.	.	.	.	.	.	.
.	.	.	.	8c'/	.	.	.	.	.	.	.	.	.	.	.	.
.	.	.	.	8e-'/J	.	8cc\	.	.	.	.	.	.	.	.	.	.
.	.	.	.	8c'/L	.	4a\	.	.	.	.	.	.	.	.	.	.
.	.	.	.	8e-'/	.	.	.	.	.	.	.	.	.	.	.	.
.	.	.	.	8c'/	.	4r	.	.	.	.	.	.	.	.	.	.
.	.	.	.	8e-'/J	.	.	.	.	.	.	.	.	.	.	.	.
=61	=61	=61	=61	=61	=61	=61	=61	=61	=61	=61	=61	=61	=61	=61	=61	=61
.	.	.	.	(8d/L	.	4.ff\	.	.	.	.	.	.	.	.	.	.
.	.	.	.	8f/)	.	.	.	.	.	.	.	.	.	.	.	.
.	.	.	.	8d'/	.	.	.	.	.	.	.	.	.	.	.	.
.	.	.	.	8f'/J	.	8dd\	.	.	.	.	.	.	.	.	.	.
.	.	.	.	8d'/L	.	4b-\	.	.	.	.	.	.	.	.	.	.
.	.	.	.	8f'/	.	.	.	.	.	.	.	.	.	.	.	.
.	.	.	.	8d'/	.	4r	.	.	.	.	.	.	.	.	.	.
.	.	.	.	8f'/J	.	.	.	.	.	.	.	.	.	.	.	.
=62	=62	=62	=62	=62	=62	=62	=62	=62	=62	=62	=62	=62	=62	=62	=62	=62
.	.	.	.	8g/L	.	8bb-\L	.	.	.	.	.	.	.	.	.	.
.	.	.	.	8b-/	.	(8bb-\	.	.	.	.	.	.	.	.	.	.
.	.	.	.	8f/	.	8aa\)	.	.	.	.	.	.	.	.	.	.
.	.	.	.	8a/J	.	(8aa\J	.	.	.	.	.	.	.	.	.	.
.	.	.	.	8e-/L	.	8gg\L)	.	.	.	.	.	.	.	.	.	.
.	.	.	.	8g/	.	(8gg\	.	.	.	.	.	.	.	.	.	.
.	.	.	.	8d/	.	8ff\)	.	.	.	.	.	.	.	.	.	.
.	.	.	.	8f/J	.	(8ff\J	.	.	.	.	.	.	.	.	.	.
=63	=63	=63	=63	=63	=63	=63	=63	=63	=63	=63	=63	=63	=63	=63	=63	=63
.	.	.	.	8c/L	.	8ee-\L)	.	.	.	.	.	.	.	.	.	.
.	.	.	.	8e-/	.	(8ee-\	.	.	.	.	.	.	.	.	.	.
.	.	.	.	8B-/	.	8dd\)	.	.	.	.	.	.	.	.	.	.
.	.	.	.	8d/J	.	(8dd\J	.	.	.	.	.	.	.	.	.	.
.	.	.	.	8A/L	.	8cc\L)	.	.	.	.	.	.	.	.	.	.
.	.	.	.	8c/	.	(8cc\	.	.	.	.	.	.	.	.	.	.
.	.	.	.	8B-/	.	8dd\)	.	.	.	.	.	.	.	.	.	.
.	.	.	.	8d/J	.	(8dd\J	.	.	.	.	.	.	.	.	.	.
=64	=64	=64	=64	=64	=64	=64	=64	=64	=64	=64	=64	=64	=64	=64	=64	=64
1r	.	1r	.	8c/L	.	8ee-\L)	.	1r	.	1r	.	1r	1r	1r	.	1r
.	.	.	.	8d/	.	8ff'\	.	.	.	.	.	.	.	.	.	.
.	.	.	.	8e-/	.	8gg'\	.	.	.	.	.	.	.	.	.	.
.	.	.	.	8d/J	.	8ff'\J	.	.	.	.	.	.	.	.	.	.
.	.	.	.	8d/L	.	(8ff\L	.	.	.	.	.	.	.	.	.	.
.	.	.	.	8c/	.	8ee-\)	.	.	.	.	.	.	.	.	.	.
.	.	.	.	8B-/	.	8dd'\	.	.	.	.	.	.	.	.	.	.
.	.	.	.	8A/J	.	8cc'\J	.	.	.	.	.	.	.	.	.	.
=65	=65	=65	=65	=65	=65	=65	=65	=65	=65	=65	=65	=65	=65	=65	=65	=65
*	*	*tremolo	*	*	*	*tremolo	*	*	*	*	*	*	*	*	*	*
4B-\	.	8d\L	.	8d/	.	8b-\L	f	4B-/	.	4f\	.	4d/	4b-\	4d/	.	4b-\
.	.	8d\	.	4f/	.	8b-\	.	.	.	.	.	.	.	.	.	.
4r	.	8d\	.	.	.	8b-\	.	4r	.	4r	.	4r	4r	4r	.	4r
.	.	8d\J	.	4f/	.	8b-\J	.	.	.	.	.	.	.	.	.	.
*	*	*Xtremolo	*	*	*	*Xtremolo	*	*	*	*tremolo	*	*	*	*tremolo	*	*
4d\	.	8d\L	.	.	.	8b-\L	.	8B-\L	.	8f\L	.	4d/	4b-\	8f/L	.	8b-\L
!	!	!	!	!LO:LB:g=original	!	!	!	!	!	!	!	!	!	!	!	!
.	.	8d\	.	4f/	.	8b-\J	.	8B-\	.	8f\	.	.	.	8f/	.	8b-\J
4A\	.	8f\	.	.	.	(8.cc\L	.	8f\	.	8f\	.	4f/	4cc\	8f/	.	8.cc\L
.	.	8f\J	.	[8f/	.	.	.	8f\J	.	8f\J	.	.	.	8f/J	.	.
*	*	*	*	*	*	*	*	*	*	*Xtremolo	*	*	*	*Xtremolo	*	*
.	.	.	.	.	.	32b-\LL	.	.	.	.	.	.	.	.	.	32b-\LL
.	.	.	.	.	.	32cc\JJJ)	.	.	.	.	.	.	.	.	.	32cc\JJJ
!	!	!	!	!	!	!	!	!	!	!	!	!	!LO:LB:g=original	!	!	!
=66	=66	=66	=66	=66	=66	=66	=66	=66	=66	=66	=66	=66	=66	=66	=66	=66
*	*	*tremolo	*	*	*	*tremolo	*	*	*	*	*	*	*	*	*	*
4B-\	.	8B-/L	.	8f/]	.	8dd\L	.	4B-/	.	4f\	.	4b-\	4dd\	4f/	.	4dd\
.	.	8B-/	.	4f/	.	8dd\	.	.	.	.	.	.	.	.	.	.
4r	.	8B-/	.	.	.	8dd\	.	4r	.	4r	.	4r	4r	4r	.	4r
.	.	8B-/J	.	4f/	.	8dd\J	.	.	.	.	.	.	.	.	.	.
*	*	*Xtremolo	*	*	*	*Xtremolo	*	*	*	*	*	*	*	*	*	*
4B-\	.	8B-/L	.	.	.	8dd\L	.	8B-\L	.	2f\	.	4b-\	4dd\	8b-\L	.	8dd\L
.	.	8B-/J	.	4f/	.	8dd\J	.	8B-\	.	.	.	.	.	8b-\J	.	8dd\J
.	.	8qqd/	.	.	.	8qqff/	.	.	.	.	.	.	.	8qqdd/	.	8qqff/
4F\	.	8c/L	.	.	.	8ee-\L	.	8f\	.	.	.	4f/	4cc\	8cc\L	.	8ee-\L
.	.	16B-/L	.	[8f/	.	16dd\L	.	8f\J	.	.	.	.	.	16b-\L	.	16dd\L
.	.	16A/JJ	.	.	.	16cc\JJ	.	.	.	.	.	.	.	16a\JJ	.	16cc\JJ
=67	=67	=67	=67	=67	=67	=67	=67	=67	=67	=67	=67	=67	=67	=67	=67	=67
4B-\	.	8B-\L	.	8f/L]	.	8dd\	.	4B-/	.	4f\	.	4d/	4b-\	4b-\	.	4dd\
.	.	8d\	.	8b-/	.	4ff\	.	.	.	.	.	.	.	.	.	.
4r	.	8d\	.	8b-/	.	.	.	4r	.	4r	.	4r	4r	4r	.	4r
.	.	8d\J	.	8b-/J	.	4ff\	.	.	.	.	.	.	.	.	.	.
*	*	*	*	*	*	*	*	*	*	*	*	*	*	*tremolo	*	*
4d\	.	8e-\L	.	8b-\L	.	.	.	8B-\L	.	2f\	.	4d/	4b-\	8f/L	.	8b-\L
.	.	8e-\	.	8b-\J	.	4ff\	.	8B-\	.	.	.	.	.	8f/	.	8b-\J
4A\	.	8f\	.	(8.cc\L	.	.	.	8f\	.	.	.	4f/	4cc\	8f/	.	8.cc\L
.	.	8f\J	.	.	.	8ff\	.	8f\J	.	.	.	.	.	8f/J	.	.
*	*	*	*	*	*	*	*	*	*	*	*	*	*	*Xtremolo	*	*
.	.	.	.	32b-\LL	.	.	.	.	.	.	.	.	.	.	.	32b-\LL
.	.	.	.	32cc\JJJ)	.	.	.	.	.	.	.	.	.	.	.	32cc\JJJ
!	!	!	!	!	!	!LO:LB:g=original	!	!	!	!	!	!	!	!	!	!
=68	=68	=68	=68	=68	=68	=68	=68	=68	=68	=68	=68	=68	=68	=68	=68	=68
*	*	*tremolo	*	*tremolo	*	*	*	*	*	*	*	*	*	*	*	*
4B-\	.	8b-\L	.	16dd\LL	.	8ff\	.	4B-/	.	4f\	.	4b-\	4dd\	4f/	.	4dd\
.	.	.	.	16dd\	.	.	.	.	.	.	.	.	.	.	.	.
.	.	8b-\	.	16dd\	.	4ff\	.	.	.	.	.	.	.	.	.	.
.	.	.	.	16dd\	.	.	.	.	.	.	.	.	.	.	.	.
4r	.	8b-\	.	16dd\	.	.	.	4r	.	4r	.	4r	4r	4r	.	4r
.	.	.	.	16dd\	.	.	.	.	.	.	.	.	.	.	.	.
.	.	8b-\J	.	16dd\	.	4ff\	.	.	.	.	.	.	.	.	.	.
.	.	.	.	16dd\JJ	.	.	.	.	.	.	.	.	.	.	.	.
*	*	*Xtremolo	*	*Xtremolo	*	*	*	*	*	*	*	*	*	*	*	*
4B-\	.	8b-\L	.	8dd\L	.	.	.	8B-\L	.	2f\	.	4b-\	4dd\	8b-\L	.	8dd\L
.	.	8b-\J	.	8dd\J	.	4ff\	.	8B-\	.	.	.	.	.	8b-\J	.	8dd\J
.	.	8qqdd/	.	8qqff/	.	.	.	.	.	.	.	.	.	8qqdd/	.	8qqff/
4F\	.	8cc\L	.	8ee-\L	.	.	.	8f\	.	.	.	4f/	4cc\	8cc\L	.	8ee-\L
.	.	16b-\L	.	16dd\L	.	[8ff\	.	8f\J	.	.	.	.	.	16b-\L	.	16dd\L
.	.	16a\JJ	.	16cc\JJ	.	.	.	.	.	.	.	.	.	16a\JJ	.	16cc\JJ
=69	=69	=69	=69	=69	=69	=69	=69	=69	=69	=69	=69	=69	=69	=69	=69	=69
!	!LO:DY:a	!	!	!	!	!	!	!	!	!	!	!	!	!	!	!
4B-\	f	8b-\L	.	8dd\	.	8ff\L]	.	4B-/	.	4f\	.	4d/	4b-\	4b-\	.	4dd\
.	.	8f\	.	4b-\	.	8dd\	.	.	.	.	.	.	.	.	.	.
4r	.	8f\	.	.	.	8dd\	.	4r	.	4r	.	4r	4r	4r	.	4r
.	.	8f\J	.	4b-\	.	8dd\J	.	.	.	.	.	.	.	.	.	.
!	!	!LO:LB:g=original	!	!	!	!	!	!	!	!	!	!	!	!	!	!
*	*	*	*	*	*	*	*	*	*	*	*	*	*	*tremolo	*	*
4G\	.	8g\L	.	.	.	8ee-\L	.	4G/	.	4e-\	.	4B-/	4b-\	8b-\L	.	8ee-\L
.	.	8g\	.	4b-\	.	8ee-\J	.	.	.	.	.	.	.	8b-\	.	8ee-\J
4D\	.	8b-\	.	.	.	(8.ff\L	.	4B-/	.	4f\	.	4B-/	4b-\	8b-\	.	8.ff\L
.	.	8b-\J	.	[8b-\	.	.	.	.	.	.	.	.	.	8b-\J	.	.
*	*	*	*	*	*	*	*	*	*	*	*	*	*	*Xtremolo	*	*
.	.	.	.	.	.	32ee-\LL	.	.	.	.	.	.	.	.	.	32ee-\LL
.	.	.	.	.	.	32ff\JJJ)	.	.	.	.	.	.	.	.	.	32ff\JJJ
!	!	!	!	!	!	!	!	!LO:LB:g=original	!	!	!	!	!	!	!	!
=70	=70	=70	=70	=70	=70	=70	=70	=70	=70	=70	=70	=70	=70	=70	=70	=70
*	*	*tremolo	*	*	*	*tremolo	*	*	*	*	*	*	*	*	*	*
4E-\	.	8e-\L	.	8b-\]	.	8gg\L	.	4e-\	.	4g\	.	4B-/	4b-\	4b-\	.	4gg\
.	.	8e-\	.	4b-\	.	8gg\	.	.	.	.	.	.	.	.	.	.
4r	.	8e-\	.	.	.	8gg\	.	4r	.	4r	.	4r	4r	4r	.	4r
.	.	8e-\J	.	4b-\	.	8gg\J	.	.	.	.	.	.	.	.	.	.
*	*	*Xtremolo	*	*	*	*Xtremolo	*	*	*	*	*	*tremolo	*tremolo	*	*	*
!LO:LB:g=original	!	!	!	!	!	!	!	!	!	!	!	!	!	!	!	!
4E-\	.	8e-\L	.	.	.	8gg\L	.	4e-\	.	4g\	.	8B-/L	8b-\L	8ee-\L	.	8gg\L
.	.	8e-\J	.	4b-\	.	8gg\J	.	.	.	.	.	8B-/	8b-\	8ee-\J	.	8gg\J
.	.	8qqf/	.	.	.	8qqbb-/	.	.	.	.	.	.	.	8qqgg/	.	8qqbb-/
!	!	!LO:TX:a:t=f	!	!	!	!	!	!	!	!	!	!	!	!	!	!
!	!	!LO:SIC:s=8f:v	!	!	!	!	!	!	!	!	!	!	!	!	!	!
4BB-/	.	8e-\L	.	.	.	8aa\L	.	4B-/	.	4f\	.	8B-/	8b-\	8ff\L	.	8aa-X\L
!	!	!LO:TX:a:t=e	!	!	!	!	!	!	!	!	!	!	!	!	!	!
!	!	!LO:SIC:s=8e-:v	!	!	!	!	!	!	!	!	!	!	!	!	!	!
.	.	16d\L	.	[8b-\	.	16gg\L	.	.	.	.	.	8B-/J	8b-\J	16ee-\L	.	16gg\L
!	!	!LO:TX:a:t=d	!	!	!	!	!	!	!	!	!	!	!	!	!	!
!	!	!LO:SIC:s=8d:v	!	!	!	!	!	!	!	!	!	!	!	!	!	!
.	.	16c\JJ	.	.	.	16ff\JJ	.	.	.	.	.	.	.	16dd\JJ	.	16ff\JJ
*	*	*	*	*	*	*	*	*	*	*	*	*Xtremolo	*Xtremolo	*	*	*
!	!	!	!	!	!	!	!	!	!	!LO:LB:g=original	!	!	!	!LO:LB:g=original	!	!LO:LB:g=original
=71	=71	=71	=71	=71	=71	=71	=71	=71	=71	=71	=71	=71	=71	=71	=71	=71
4E-\	.	8e-\L	.	8b-\L]	.	8gg\	.	4G/	.	4e-\	.	4B-/	4b-\	4ee-\	.	4gg\
.	.	8g\	.	8ee-\	.	4bb-\	.	.	.	.	.	.	.	.	.	.
4r	.	8g\	.	8ee-\	.	.	.	4r	.	4r	.	4r	4r	4r	.	4r
.	.	8g\J	.	8ee-\J	.	4bb-\	.	.	.	.	.	.	.	.	.	.
!	!	!	!	!	!	!	!	!	!	!	!	!LO:LB:g=original	!	!	!	!
4G\	.	8g\L	.	8ee-\L	.	.	.	4G/	.	4e-\	.	4B-/	4b-\	2b-\	.	8ee-\L
.	.	8g\	.	8ee-\J	.	4bb-\	.	.	.	.	.	.	.	.	.	8ee-\J
4D\	.	8b-\	.	8.ff\L	.	.	.	4B-/	.	4f\	.	4B-/	4b-\	.	.	8.ff\L
.	.	8b-\J	.	.	.	[8bb-\	.	.	.	.	.	.	.	.	.	.
.	.	.	.	32ee-\LL	.	.	.	.	.	.	.	.	.	.	.	32ee-\LL
.	.	.	.	32ff\JJJ	.	.	.	.	.	.	.	.	.	.	.	32ff\JJJ
=72	=72	=72	=72	=72	=72	=72	=72	=72	=72	=72	=72	=72	=72	=72	=72	=72
*	*	*tremolo	*	*tremolo	*	*	*	*	*	*	*	*	*	*	*	*
4E-\	.	8e-\L	.	8gg\L	.	8bb-\]	.	4e-\	.	4g\	.	4B-/	4b-\	4b-\	.	4gg\
.	.	8e-\	.	8gg\	.	4bb-\	.	.	.	.	.	.	.	.	.	.
4r	.	8e-\	.	8gg\	.	.	.	4r	.	4r	.	4r	4r	4r	.	4r
.	.	8e-\J	.	8gg\J	.	4bb-\	.	.	.	.	.	.	.	.	.	.
*	*	*Xtremolo	*	*Xtremolo	*	*	*	*	*	*	*	*tremolo	*tremolo	*	*	*
4E-\	.	8e-\L	.	8gg\L	.	.	.	4e-\	.	4g\	.	8B-/L	8b-\L	8ee-\L	.	8gg\L
.	.	8e-\J	.	8gg\J	.	4bb-\	.	.	.	.	.	8B-/	8b-\	8ee-\J	.	8gg\J
.	.	8qqg/	.	8qqbb-/	.	.	.	.	.	.	.	.	.	8qqgg/	.	8qqbb-
4BB-/	.	8f\L	.	8aa-\L	.	.	.	4B-/	.	4f\	.	8B-/	8b-\	8ff\L	.	8aa-X\L
.	.	16e-\L	.	16gg\L	.	[8bb-\	.	.	.	.	.	8B-/J	8b-\J	16ee-\L	.	16gg\L
.	.	16d\JJ	.	16ff\JJ	.	.	.	.	.	.	.	.	.	16dd\JJ	.	16ff\JJ
*	*	*	*	*	*	*	*	*	*	*	*	*Xtremolo	*Xtremolo	*	*	*
!	!	!	!	!LO:LB:g=original	!	!	!	!	!	!	!	!	!	!	!	!
=73	=73	=73	=73	=73	=73	=73	=73	=73	=73	=73	=73	=73	=73	=73	=73	=73
*	*	*tremolo	*	*	*	*	*	*	*	*	*	*	*	*	*	*
4E-\	.	8e-\L	.	8gg\	.	8bb-\L]	.	4G/	.	4e-\	.	4B-/	4b-\	4ee-\	.	4gg\
.	.	8e-\	.	4g/	.	8gg\	.	.	.	.	.	.	.	.	.	.
4r	.	8e-\	.	.	.	8gg\	.	4r	.	4r	.	4r	4r	4r	.	4r
.	.	8e-\J	.	4g/	.	8bn\J	.	.	.	.	.	.	.	.	.	.
*	*	*Xtremolo	*	*	*	*	*	*tremolo	*	*tremolo	*	*	*	*tremolo	*	*
4E-\	.	8e-\L	.	.	.	8cc\L	.	8G/L	.	8g\L	.	4cc\	4cc\	8g/L	.	8cc\L
.	.	8e-\	.	4g/	.	8cc\J	.	8G/	.	8g\	.	.	.	8g/	.	8cc\J
4BBn/	.	8g\	.	.	.	(8.dd\L	.	8G/	.	8g\	.	4dd\	4dd\	8g/	.	8.dd\L
.	.	8g\J	.	[8g/	.	.	.	8G/J	.	8g\J	.	.	.	8g/J	.	.
.	.	.	.	.	.	32cc\LL	.	.	.	.	.	.	.	.	.	32cc\LL
.	.	.	.	.	.	32dd\JJJ)	.	.	.	.	.	.	.	.	.	32dd\JJJ
*	*	*	*	*	*	*	*	*Xtremolo	*	*Xtremolo	*	*	*	*Xtremolo	*	*
=74	=74	=74	=74	=74	=74	=74	=74	=74	=74	=74	=74	=74	=74	=74	=74	=74
*	*	*tremolo	*	*	*	*tremolo	*	*	*	*	*	*	*	*	*	*
4C/	.	8c\L	.	8g/]	.	8ee-\L	.	4G/	.	4g\	.	4cc\	4cc\	4g/	.	4ee-\
.	.	8c\	.	4g/	.	8ee-\	.	.	.	.	.	.	.	.	.	.
4r	.	8c\	.	.	.	8ee-\	.	4r	.	4r	.	4r	4r	4r	.	4r
.	.	8c\J	.	4g/	.	8ee-\J	.	.	.	.	.	.	.	.	.	.
*	*	*Xtremolo	*	*	*	*Xtremolo	*	*	*	*	*	*	*	*	*	*
4C/	.	8c\L	.	.	.	8ee-\L	.	2G/	.	8g\L	.	4cc\	4cc\	8cc\L	.	8ee-\L
.	.	8c\J	.	4g/	.	8ee-\J	.	.	.	8g\	.	.	.	8cc\J	.	8ee-\J
.	.	8qqe-/	.	.	.	8qqgg/	.	.	.	.	.	.	.	8qqee-/	.	8qqgg/
4GG/	.	8d\L	.	.	.	8ff\L	.	.	.	8f\	.	4dd\	4dd\	8dd\L	.	8ff\L
.	.	16c\L	.	[8g/	.	16ee-\L	.	.	.	8f\J	.	.	.	16cc\L	.	16ee-\L
.	.	16Bn\JJ	.	.	.	16dd\JJ	.	.	.	.	.	.	.	16bn\JJ	.	16dd\JJ
=75	=75	=75	=75	=75	=75	=75	=75	=75	=75	=75	=75	=75	=75	=75	=75	=75
4C/	.	8d\L	.	8g/L]	.	8ee-\	.	4G/	.	4e-\	.	4cc\	4cc\	4cc\	.	4ee-\
.	.	8f\	.	8cc/	.	4gg\	.	.	.	.	.	.	.	.	.	.
4r	.	8f\	.	8cc/	.	.	.	4r	.	4r	.	4r	4r	4r	.	4r
.	.	8f\J	.	8cc/J	.	4gg\	.	.	.	.	.	.	.	.	.	.
!	!	!	!	!	!	!LO:LB:g=original	!	!	!	!	!	!	!LO:LB:g=original	!	!	!
*	*	*	*	*	*	*	*	*	*	*	*	*	*	*tremolo	*	*
4E-\	.	8f\L	.	8cc\L	.	.	.	2G/	.	2g\	.	4cc\	4cc\	8g/L	.	8cc\L
.	.	8f\	.	8cc\J	.	4gg\	.	.	.	.	.	.	.	8g/	.	8cc\J
4BBn/	.	8a\	.	(8.dd\L	.	.	.	.	.	.	.	4dd\	4dd\	8g/	.	8.dd\L
.	.	8a\J	.	.	.	[8gg\	.	.	.	.	.	.	.	8g/J	.	.
*	*	*	*	*	*	*	*	*	*	*	*	*	*	*Xtremolo	*	*
.	.	.	.	32cc\LL	.	.	.	.	.	.	.	.	.	.	.	32cc\LL
.	.	.	.	32dd\JJJ)	.	.	.	.	.	.	.	.	.	.	.	32dd\JJJ
=76	=76	=76	=76	=76	=76	=76	=76	=76	=76	=76	=76	=76	=76	=76	=76	=76
*	*	*	*	*tremolo	*	*	*	*	*	*	*	*	*	*	*	*
4C/	.	8c\L	.	8ee-\L	.	8gg\]	.	4G/	.	4g\	.	4cc\	4cc\	4g/	.	4ee-\
.	.	8cc\	.	8ee-\	.	4gg\	.	.	.	.	.	.	.	.	.	.
4r	.	8cc\	.	8ee-\	.	.	.	4r	.	4r	.	4r	4r	4r	.	4r
.	.	8cc\J	.	8ee-\J	.	4gg\	.	.	.	.	.	.	.	.	.	.
*	*	*	*	*Xtremolo	*	*	*	*	*	*	*	*	*	*	*	*
4C/	.	8cc\L	.	8ee-\L	.	.	.	2G/	.	8g\L	.	4cc\	4cc\	8cc\L	.	8ee-\L
.	.	8cc\J	.	8ee-\J	.	4gg\	.	.	.	8g\	.	.	.	8cc\J	.	8ee-\J
.	.	8qqee-/	.	8qqgg/	.	.	.	.	.	.	.	.	.	8qqee-/	.	8qqgg/
4GG/	.	8dd\L	.	8ff\L	.	.	.	.	.	8f\	.	4dd\	4dd\	8dd\L	.	8ff\L
.	.	16cc\L	.	16ee-\L	.	8gg\	.	.	.	8f\J	.	.	.	16cc\L	.	16ee-\L
.	.	16bn\JJ	.	16dd\JJ	.	.	.	.	.	.	.	.	.	16bn\JJ	.	16dd\JJ
=77	=77	=77	=77	=77	=77	=77	=77	=77	=77	=77	=77	=77	=77	=77	=77	=77
*tremolo	*	*	*	*	*	*	*	*	*	*	*	*	*	*	*	*
8C/L	.	8cc\L	.	4ee-\	.	4gg\	.	4G/	.	4e-\	.	4cc\	4cc\	4cc\	.	4ee-\
8C/	.	8c\	.	.	.	.	.	.	.	.	.	.	.	.	.	.
8C/	.	8c\	.	2ee-\	.	2gg\	sf	4r	.	4r	.	4r	4r	2ee-\	.	2gg\
8C/J	.	8c\J	.	.	.	.	.	.	.	.	.	.	.	.	.	.
*Xtremolo	*	*	*	*	*	*	*	*	*	*	*	*	*	*	*	*
8C/L	.	8c\L	.	.	.	.	.	2r	.	2r	.	2r	2r	.	.	.
8C/J	.	8c\J	.	.	.	.	.	.	.	.	.	.	.	.	.	.
8.Dm\L	.	8.Bn/L	.	4dd\	.	4ff\	.	.	.	.	.	.	.	4dd\	.	4ff\
32C\LL	.	(32A/LL	.	.	.	.	.	.	.	.	.	.	.	.	.	.
32D\JJJ	.	32B/JJJ)	.	.	.	.	.	.	.	.	.	.	.	.	.	.
!	!	!LO:LB:g=original	!	!	!	!	!	!	!	!	!	!	!	!	!	!
=78	=78	=78	=78	=78	=78	=78	=78	=78	=78	=78	=78	=78	=78	=78	=78	=78
8E-\L	.	8c\L	.	8cc\L	.	4ee-\	.	4r	.	4r	.	4r	4r	4cc\	.	4ee-\
8G\	.	8g\	.	8b-X\	.	.	sf	.	.	.	.	.	.	.	.	.
!	!	!	!	!	!	!	!	!	!	!	!	!	!	!	!	!LO:LB:g=original
8G\	.	8g\	.	8b-\	.	2ee-\	.	2g\	.	2g\	.	4b-\	4b-\	2b-X\	.	2ee-\
8G\J	.	8g\J	.	8b-\J	.	.	.	.	.	.	.	.	.	.	.	.
*	*	*	*	*tremolo	*	*	*	*	*	*	*	*	*	*	*	*
8G\L	.	8g\L	.	8b-\L	.	.	.	.	.	.	.	4b-\	4b-\	.	.	.
8G\J	.	8g\J	.	8b-\	.	.	.	.	.	.	.	.	.	.	.	.
8.F\L	.	(8.f\L	.	8b-\	.	4dd\	.	4f\	.	4f\	.	4b-\	4b-\	4b-\	.	4dd\
.	.	.	.	8b-\J	.	.	.	.	.	.	.	.	.	.	.	.
32E-\LL	.	32e-\LL	.	.	.	.	.	.	.	.	.	.	.	.	.	.
32G\JJJ	.	32f\JJJ)	.	.	.	.	.	.	.	.	.	.	.	.	.	.
!	!	!	!	!	!	!	!	!	!	!	!	!	!	!LO:LB:g=original	!	!
=79	=79	=79	=79	=79	=79	=79	=79	=79	=79	=79	=79	=79	=79	=79	=79	=79
*tremolo	*	*tremolo	*	*	*	*	*	*tremolo	*	*	*	*	*	*	*	*
8E-\L	.	8e-\L	.	16g/LL	.	4cc\	.	8e-\L	.	8e-\L	.	(2cc\	(2cc\	2g/	.	4cc\
.	.	.	.	16g/	.	.	.	.	.	.	.	.	.	.	.	.
8E-\	.	8e-\	.	16g/	.	.	.	8e-\	.	8g\	.	.	.	.	.	.
.	.	.	.	16g/	.	.	.	.	.	.	.	.	.	.	.	.
8E-\	.	8e-\	.	16g/	.	2gg\	sf	8e-\	.	8g\	.	.	.	.	.	2gg\
.	.	.	.	16g/	.	.	.	.	.	.	.	.	.	.	.	.
8E-\J	.	8e-\J	.	16g/	.	.	.	8e-\J	.	8g\J	.	.	.	.	.	.
.	.	.	.	16g/JJ	.	.	.	.	.	.	.	.	.	.	.	.
*Xtremolo	*	*Xtremolo	*	*	*	*	*	*Xtremolo	*	*	*	*tremolo	*tremolo	*	*	*
!LO:LB:g=original	!	!	!	!	!	!	!	!	!	!	!	!LO:TX:a:t=P:problem=trzy kropki nad nutą	!LO:TX:a:t=P:problem=trzy kropki nad nutą	!	!	!
8E-\L	.	8e-\L	.	16g/LL	.	.	.	4e-\	.	4g\	.	8cc'\L)	8cc'\L)	2g/	.	.
.	.	.	.	16g/	.	.	.	.	.	.	.	.	.	.	.	.
8E-\J	.	8e-\J	.	16g/	.	.	.	.	.	.	.	8cc'\	8cc\	.	.	.
.	.	.	.	16g/	.	.	.	.	.	.	.	.	.	.	.	.
8.En\L	.	(8.en\L	.	16g/	.	4b-X\	.	4g\	.	4g\	.	8cc'\	8cc'\	.	.	4b-X\
.	.	.	.	16g/	.	.	.	.	.	.	.	.	.	.	.	.
.	.	.	.	16g/	.	.	.	.	.	.	.	8cc\J	8cc\J	.	.	.
32D\LL	.	32d\LL	.	16g/JJ	.	.	.	.	.	.	.	.	.	.	.	.
32E\JJJ	.	32e\JJJ)	.	.	.	.	.	.	.	.	.	.	.	.	.	.
*	*	*	*	*Xtremolo	*	*	*	*	*	*	*	*Xtremolo	*Xtremolo	*	*	*
=80	=80	=80	=80	=80	=80	=80	=80	=80	=80	=80	=80	=80	=80	=80	=80	=80
!	!	!	!	!LO:TX:a:t=P:problem=mixed beam	!	!	!	!	!	!	!	!	!	!	!	!
4F\	.	4f\	.	(8b-/L	.	4a/	.	4f\	.	4f\	.	4f/	4cc\	4f/	.	4a/
.	.	.	.	8ff\	.	.	.	.	.	.	.	.	.	.	.	.
4r	.	4r	.	8een\	.	4r	.	4r	.	4r	.	4r	4r	4r	.	4r
.	.	.	.	8ff\J	.	.	.	.	.	.	.	.	.	.	.	.
2r	.	2r	.	8ee\L	.	4r	.	2r	.	2r	.	2r	2r	2r	.	2r
.	.	.	.	8ff\	.	.	.	.	.	.	.	.	.	.	.	.
.	.	.	.	8cc\	.	8.aa\L	.	.	.	.	.	.	.	.	.	.
.	.	.	.	8ee-X\J)	.	.	.	.	.	.	.	.	.	.	.	.
.	.	.	.	.	.	32gg\LL	.	.	.	.	.	.	.	.	.	.
.	.	.	.	.	.	32aa\JJJ	.	.	.	.	.	.	.	.	.	.
!	!	!	!	!	!	!	!	!LO:LB:g=original	!	!	!	!	!	!	!	!
=81	=81	=81	=81	=81	=81	=81	=81	=81	=81	=81	=81	=81	=81	=81	=81	=81
4F\	.	4r	.	8dd\L	.	8bb-\	.	1r	.	1r	.	1r	1r	1r	.	1r
.	.	.	.	8ff\	.	8r	.	.	.	.	.	.	.	.	.	.
4r	.	4a\	.	8a\	.	8.ccc\L	.	.	.	.	.	.	.	.	.	.
.	.	.	.	8cc\J	.	.	.	.	.	.	.	.	.	.	.	.
.	.	.	.	.	.	32bb-\LL	.	.	.	.	.	.	.	.	.	.
.	.	.	.	.	.	32ccc\JJJ	.	.	.	.	.	.	.	.	.	.
!	!	!	!	!LO:LB:g=original	!	!	!	!	!	!	!	!	!	!	!	!
4F\	.	4b-\	.	8b-\L	.	8ddd\	.	.	.	.	.	.	.	.	.	.
.	.	.	.	8dd\	.	8r	.	.	.	.	.	.	.	.	.	.
4r	.	4g\	.	8g\	.	8.een\L	.	.	.	.	.	.	.	.	.	.
.	.	.	.	8b-\J	.	.	.	.	.	.	.	.	.	.	.	.
.	.	.	.	.	.	32dd\LL	.	.	.	.	.	.	.	.	.	.
.	.	.	.	.	.	32ee\JJJ	.	.	.	.	.	.	.	.	.	.
!	!	!	!	!	!	!	!	!	!	!LO:LB:g=original	!	!	!	!	!	!
=82	=82	=82	=82	=82	=82	=82	=82	=82	=82	=82	=82	=82	=82	=82	=82	=82
!	!	!	!	!LO:TX:a:t=P:problem=takty 82-83 zapisane repetycją	!	!	!	!	!	!	!	!	!	!	!	!
!	!	!	!	!LO:TX:a:t=P:problem=mixed beam	!	!	!	!	!	!	!	!	!	!	!	!
*	*	*tremolo	*	*	*	*	*	*	*	*	*	*	*	*	*	*
4F\	.	8f\L	.	(8f/Lyy	.	4ff\	.	4f\	.	4f\	.	4f/	4cc\	4a\	.	4ff\
.	.	8f\	.	8ff\yy	.	.	.	.	.	.	.	.	.	.	.	.
4r	.	8f\	.	8een\yy	.	4r	.	4r	.	4r	.	4r	4r	4r	.	4r
.	.	8f\J	.	8ff\Jyy	.	.	.	.	.	.	.	.	.	.	.	.
*	*	*Xtremolo	*	*	*	*	*	*	*	*	*	*	*	*	*	*
2r	.	4f\	.	8ee\Lyy	.	4r	.	2r	.	2r	.	2r	2r	2r	.	2r
.	.	.	.	8ff\yy	.	.	.	.	.	.	.	.	.	.	.	.
.	.	4r	.	8cc\yy	.	8.aa\L	.	.	.	.	.	.	.	.	.	.
.	.	.	.	8ee-X\J)yy	.	.	.	.	.	.	.	.	.	.	.	.
.	.	.	.	.	.	32gg\LL	.	.	.	.	.	.	.	.	.	.
.	.	.	.	.	.	32aa\JJJ	.	.	.	.	.	.	.	.	.	.
!	!	!	!	!	!	!	!	!	!	!	!	!LO:LB:g=original	!	!	!	!
=83	=83	=83	=83	=83	=83	=83	=83	=83	=83	=83	=83	=83	=83	=83	=83	=83
!	!	!LO:TX:a:t=P:problem=brak taktów 83 i 84, powinna być repetycja tt.81-82	!	!	!	!	!	!	!	!	!	!	!	!	!	!
4F\	.	1ryy	.	8dd\Lyy	.	8bb-\	.	1r	.	1r	.	1r	1r	1r	.	1r
.	.	.	.	8ff\yy	.	8r	.	.	.	.	.	.	.	.	.	.
4r	.	.	.	8a\yy	.	8.ccc\L	.	.	.	.	.	.	.	.	.	.
.	.	.	.	8cc\Jyy	.	.	.	.	.	.	.	.	.	.	.	.
.	.	.	.	.	.	32bb-\LL	.	.	.	.	.	.	.	.	.	.
.	.	.	.	.	.	32ccc\JJJ	.	.	.	.	.	.	.	.	.	.
!	!	!	!	!LO:LB:g=original	!	!LO:LB:g=original	!	!	!	!	!	!	!	!	!	!
4F\	.	.	.	8b-\Lyy	.	8ddd\	.	.	.	.	.	.	.	.	.	.
.	.	.	.	8dd\yy	.	8r	.	.	.	.	.	.	.	.	.	.
4r	.	.	.	8g\yy	.	8.een\L	.	.	.	.	.	.	.	.	.	.
.	.	.	.	8b-\Jyy	.	.	.	.	.	.	.	.	.	.	.	.
.	.	.	.	.	.	32dd\LL	.	.	.	.	.	.	.	.	.	.
.	.	.	.	.	.	32ee\JJJ	.	.	.	.	.	.	.	.	.	.
=84	=84	=84	=84	=84	=84	=84	=84	=84	=84	=84	=84	=84	=84	=84	=84	=84
*tremolo	*	*	*	*	*	*	*	*	*	*	*	*tremolo	*tremolo	*	*	*
8F\L	.	1ryy	.	4a/	.	4ff\	.	4f\	.	4f\	.	8f/L	8dd\L	4a\	.	4ff\
8F\	.	.	.	.	.	.	.	.	.	.	.	8f/	8dd\	.	.	.
8F\	.	.	.	4a 4f/	.	4ff 4a/	.	4f\	.	4f\	.	8f/	8dd\	4a\	.	4ff\
8F\J	.	.	.	.	.	.	.	.	.	.	.	8f/J	8dd\J	.	.	.
*Xtremolo	*	*	*	*	*	*	*	*	*	*	*	*Xtremolo	*Xtremolo	*	*	*
4F\	.	.	.	4a 4f/	.	4ff 4a/	.	4f\	.	4f\	.	4f/	4cc\	4a\	.	4ff\
4r	.	.	.	4r	.	4r	.	4r	.	4r	.	4r	4r	4r	.	4r
=85	=85	=85	=85	=85	=85	=85	=85	=85	=85	=85	=85	=85	=85	=85	=85	=85
*	*	*tremolo	*	*	*	*	*	*	*	*	*	*	*	*	*	*
4BB-/	.	8B-/L	.	1r	.	1r	.	[1B-	p	[>1B-	.	00r	00r	00r	.	00r
.	.	8B-/	.	.	.	.	.	.	.	.	.	.	.	.	.	.
4r	.	8B-/	.	.	.	.	.	.	.	.	.	.	.	.	.	.
.	.	8B-/J	.	.	.	.	.	.	.	.	.	.	.	.	.	.
2r	.	8B-/L	.	.	.	.	.	.	.	.	.	.	.	.	.	.
.	.	8B-/	.	.	.	.	.	.	.	.	.	.	.	.	.	.
.	.	8B-/	.	.	.	.	.	.	.	.	.	.	.	.	.	.
.	.	8B-/J	.	.	.	.	.	.	.	.	.	.	.	.	.	.
=86	=86	=86	=86	=86	=86	=86	=86	=86	=86	=86	=86	=86	=86	=86	=86	=86
00r	.	8B-/L	.	2f/	.	2dd\	p	1B-_	.	1B-_>	.	.	.	.	.	.
.	.	8B-/	.	.	.	.	.	.	.	.	.	.	.	.	.	.
.	.	8B-/	.	.	.	.	.	.	.	.	.	.	.	.	.	.
.	.	8B-/J	.	.	.	.	.	.	.	.	.	.	.	.	.	.
.	.	8B-/L	.	(8g/L	.	8ee-X\L	.	.	.	.	.	.	.	.	.	.
.	.	8B-/	.	8f/	.	8dd\	.	.	.	.	.	.	.	.	.	.
.	.	8B-/	.	8g/	.	8ee-\	.	.	.	.	.	.	.	.	.	.
.	.	8B-/J	.	8e-/J)	.	8cc\J	.	.	.	.	.	.	.	.	.	.
=87	=87	=87	=87	=87	=87	=87	=87	=87	=87	=87	=87	=87	=87	=87	=87	=87
!	!	!LO:TX:a:t=P:problem=takty 87-88 zapisane repetycją	!	!	!	!	!	!	!	!	!	!	!	!	!	!
.	.	8B-/Lyy	.	(8d/L	.	4.b-\	.	1B-_	.	1B-_>	.	.	.	.	.	.
.	.	8B-/yy	.	8f/	.	.	.	.	.	.	.	.	.	.	.	.
.	.	8B-/yy	.	8d/	.	.	.	.	.	.	.	.	.	.	.	.
.	.	8B-/Jyy	.	8f/J)	.	8dd\	.	.	.	.	.	.	.	.	.	.
.	.	8B-/Lyy	.	(8d/L	.	(8b-/L	.	.	.	.	.	.	.	.	.	.
.	.	8B-/yy	.	8f/	.	8f/)	.	.	.	.	.	.	.	.	.	.
.	.	8B-/yy	.	8d/	.	8b-'/	.	.	.	.	.	.	.	.	.	.
.	.	8B-/Jyy	.	8f/J)	.	8cc'/J	.	.	.	.	.	.	.	.	.	.
=88	=88	=88	=88	=88	=88	=88	=88	=88	=88	=88	=88	=88	=88	=88	=88	=88
.	.	8B-/Lyy	.	2f/	.	2dd\	.	1B-_	.	1B-_>	.	.	.	.	.	.
.	.	8B-/yy	.	.	.	.	.	.	.	.	.	.	.	.	.	.
.	.	8B-/yy	.	.	.	.	.	.	.	.	.	.	.	.	.	.
.	.	8B-/Jyy	.	.	.	.	.	.	.	.	.	.	.	.	.	.
.	.	8B-/Lyy	.	(8g/L	.	(8ee-\L	.	.	.	.	.	.	.	.	.	.
.	.	8B-/yy	.	8f/	.	8dd\	.	.	.	.	.	.	.	.	.	.
.	.	8B-/yy	.	8g/	.	8ee-\	.	.	.	.	.	.	.	.	.	.
.	.	8B-/Jyy	.	8e-/J)	.	8cc\J)	.	.	.	.	.	.	.	.	.	.
=89	=89	=89	=89	=89	=89	=89	=89	=89	=89	=89	=89	=89	=89	=89	=89	=89
.	.	8B-/L	.	(8d/L	.	4.b-\	.	1B-]	.	1B-]	.	00r	00r	00r	.	00r
.	.	8B-/	.	8f/	.	.	.	.	.	.	.	.	.	.	.	.
.	.	8B-/	.	8d/	.	.	.	.	.	.	.	.	.	.	.	.
.	.	8B-/J	.	8f/J)	.	8dd\	.	.	.	.	.	.	.	.	.	.
.	.	8B-\L	.	4d/	.	4b-\	.	.	.	.	.	.	.	.	.	.
.	.	8d\	.	.	.	.	.	.	.	.	.	.	.	.	.	.
.	.	8f\	.	4r	.	4r	.	.	.	.	.	.	.	.	.	.
.	.	8d\J	.	.	.	.	.	.	.	.	.	.	.	.	.	.
=90	=90	=90	=90	=90	=90	=90	=90	=90	=90	=90	=90	=90	=90	=90	=90	=90
00r	.	8B-/L	.	2f/	.	2dd\	.	00r	.	00r	.	.	.	.	.	.
.	.	8B-/	.	.	.	.	.	.	.	.	.	.	.	.	.	.
.	.	8B-/	.	.	.	.	.	.	.	.	.	.	.	.	.	.
.	.	8B-/J	.	.	.	.	.	.	.	.	.	.	.	.	.	.
.	.	8B-/L	.	(8g/L	.	(8ee-\L	.	.	.	.	.	.	.	.	.	.
.	.	8B-/	.	8f/	.	8dd\	.	.	.	.	.	.	.	.	.	.
.	.	8B-/	.	8g/	.	8ee-\	.	.	.	.	.	.	.	.	.	.
.	.	8B-/J	.	8e-/J)	.	8cc\J)	.	.	.	.	.	.	.	.	.	.
=91	=91	=91	=91	=91	=91	=91	=91	=91	=91	=91	=91	=91	=91	=91	=91	=91
.	.	8B-/L	.	8d/L	.	4.b-\	.	.	.	.	.	.	.	.	.	.
.	.	8B-/	.	8f/	.	.	.	.	.	.	.	.	.	.	.	.
.	.	8B-/	.	8d/	.	.	.	.	.	.	.	.	.	.	.	.
.	.	8B-/J	.	8f/J	.	8dd\	.	.	.	.	.	.	.	.	.	.
.	.	8B-/L	.	8d/L	.	(8b-/L	.	.	.	.	.	.	.	.	.	.
.	.	8B-/	.	8f/	.	8f/)	.	.	.	.	.	.	.	.	.	.
.	.	8B-/	.	8d/	.	8b-'/	.	.	.	.	.	.	.	.	.	.
.	.	8B-/J	.	8f/J	.	8cc'/J	.	.	.	.	.	.	.	.	.	.
=92	=92	=92	=92	=92	=92	=92	=92	=92	=92	=92	=92	=92	=92	=92	=92	=92
!	!	!LO:TX:a:t=P:problem=takt zapisany repetycją	!	!	!	!	!	!	!	!	!	!	!	!	!	!
.	.	8B-/Lyy	.	2f/	.	2dd\	.	.	.	.	.	.	.	.	.	.
.	.	8B-/yy	.	.	.	.	.	.	.	.	.	.	.	.	.	.
.	.	8B-/yy	.	.	.	.	.	.	.	.	.	.	.	.	.	.
.	.	8B-/Jyy	.	.	.	.	.	.	.	.	.	.	.	.	.	.
!	!	!	!	!	!	!LO:LB:g=original	!	!	!	!	!	!	!	!	!	!
.	.	8B-/Lyy	.	(8g/L	.	(8ee-\L	.	.	.	.	.	.	.	.	.	.
.	.	8B-/yy	.	8f/	.	8dd\	.	.	.	.	.	.	.	.	.	.
.	.	8B-/yy	.	8g/	.	8ee-\	.	.	.	.	.	.	.	.	.	.
.	.	8B-/Jyy	.	8e-/J)	.	8cc\J)	.	.	.	.	.	.	.	.	.	.
!	!	!	!	!LO:LB:g=original	!	!	!	!	!	!	!	!	!	!	!	!
=93	=93	=93	=93	=93	=93	=93	=93	=93	=93	=93	=93	=93	=93	=93	=93	=93
.	.	8B-/L	.	8d/L	.	4.b-\	.	.	.	.	.	1r	1r	1r	.	1r
.	.	8B-/	.	8f/	.	.	.	.	.	.	.	.	.	.	.	.
.	.	8B-/	.	8d/	.	.	.	.	.	.	.	.	.	.	.	.
.	.	8B-/J	.	8f/J	.	8dd\	.	.	.	.	.	.	.	.	.	.
.	.	8B-\L	.	8d/L	.	4b-\	.	.	.	.	.	.	.	.	.	.
.	.	8d\	.	8f/	.	.	.	.	.	.	.	.	.	.	.	.
.	.	8f\	.	8b-/	.	4r	.	.	.	.	.	.	.	.	.	.
.	.	8b-\J	.	8dd/J	.	.	.	.	.	.	.	.	.	.	.	.
=94	=94	=94	=94	=94	=94	=94	=94	=94	=94	=94	=94	=94	=94	=94	=94	=94
*	*	*	*	*	*	*tremolo	*	*	*	*	*	*	*	*	*	*
8F\L	.	8cc\L	.	2ee- 2f/	f	16aa\LL	.	[2f\	.	[2f\	.	8r	8r	(2ee-\	.	2aa\
.	.	.	.	.	.	16aa\	.	.	.	.	.	.	.	.	.	.
8F\	.	8cc\	.	.	.	16aa\	.	.	.	.	.	8f/L	8cc\L	.	.	.
.	.	.	.	.	.	16aa\	.	.	.	.	.	.	.	.	.	.
8A\	.	8cc\	.	.	.	16aa\	.	.	.	.	.	8f/	8cc\	.	.	.
.	.	.	.	.	.	16aa\	.	.	.	.	.	.	.	.	.	.
8F\J	.	8cc\J	.	.	.	16aa\	.	.	.	.	.	8f/J	8cc\J	.	.	.
.	.	.	.	.	.	16aa\JJ	.	.	.	.	.	.	.	.	.	.
*	*	*	*	*	*	*	*	*tremolo	*	*tremolo	*	*	*	*	*	*
!	!	!	!	!	!	!	!	!LO:TX:a:t=P:problem=trzy kropki nad nutą	!	!LO:TX:a:t=P:problem=trzy kropki nad nutą	!	!	!	!	!	!
8B-\L	.	8b-\L	.	4dd 4f/	.	16bb-\LL	.	8f\L]	.	8f\]L	.	4b-\	4dd\	4dd\)	.	4bb-\
.	.	.	.	.	.	16bb-\	.	.	.	.	.	.	.	.	.	.
8F\	.	8d\	.	.	.	16bb-\	.	8f'\	.	8f'\	.	.	.	.	.	.
.	.	.	.	.	.	16bb-\	.	.	.	.	.	.	.	.	.	.
8D\	.	8f\	.	4r	.	16bb-\	.	8f'\	.	8f'\	.	4r	4r	4r	.	4r
.	.	.	.	.	.	16bb-\	.	.	.	.	.	.	.	.	.	.
8BB-\J	.	8b-\J	.	.	.	16bb-\	.	8f'\J	.	8f'\J	.	.	.	.	.	.
.	.	.	.	.	.	16bb-\JJ	.	.	.	.	.	.	.	.	.	.
*	*	*	*	*	*	*	*	*Xtremolo	*	*Xtremolo	*	*	*	*	*	*
!	!	!	!	!	!	!	!	!	!	!	!	!	!LO:LB:g=original	!	!	!
=95	=95	=95	=95	=95	=95	=95	=95	=95	=95	=95	=95	=95	=95	=95	=95	=95
!	!	!LO:TX:a:t=P:problem=takt zapisany repetycją	!	!	!	!	!	!	!	!	!	!	!	!	!	!
8F\L	.	8cc\Lyy	.	2ee- 2f/	.	16aa\LL	.	(2f\	.	[2f\	.	8r	8r	(2ee-\	.	2aa\
.	.	.	.	.	.	16aa\	.	.	.	.	.	.	.	.	.	.
8F\	.	8cc\yy	.	.	.	16aa\	.	.	.	.	.	8f/L	8cc\L	.	.	.
.	.	.	.	.	.	16aa\	.	.	.	.	.	.	.	.	.	.
8A\	.	8cc\yy	.	.	.	16aa\	.	.	.	.	.	8f/	8cc\	.	.	.
.	.	.	.	.	.	16aa\	.	.	.	.	.	.	.	.	.	.
8F\J	.	8cc\Jyy	.	.	.	16aa\	.	.	.	.	.	8f/J	8cc\J	.	.	.
.	.	.	.	.	.	16aa\JJ	.	.	.	.	.	.	.	.	.	.
*	*	*Xtremolo	*	*	*	*	*	*	*	*tremolo	*	*	*	*	*	*
!	!	!	!	!	!	!	!	!LO:TX:a:t=P:problem=powinno być tremolo 8	!	!	!	!	!	!	!	!
!	!	!	!	!	!	!	!	!LO:TX:a:t=P:problem=trzy kropki nad nutą	!	!LO:TX:a:t=P:problem=trzy kropki nad nutą	!	!	!	!	!	!
8B-\L	.	8b-\Lyy	.	4ee- 4f/	.	16bb-\LL	.	2f'\)	.	8f\]L	.	4b-\	4dd\	4dd\)	.	4bb-\
.	.	.	.	.	.	16bb-\	.	.	.	.	.	.	.	.	.	.
8F\	.	8d\yy	.	.	.	16bb-\	.	.	.	8f'\	.	.	.	.	.	.
.	.	.	.	.	.	16bb-\	.	.	.	.	.	.	.	.	.	.
8D\	.	8f\yy	.	4r	.	16bb-\	.	.	.	8f'\	.	4r	4r	4r	.	4r
.	.	.	.	.	.	16bb-\	.	.	.	.	.	.	.	.	.	.
8BB-\J	.	8b-\Jyy	.	.	.	16bb-\	.	.	.	8f'\J	.	.	.	.	.	.
.	.	.	.	.	.	16bb-\JJ	.	.	.	.	.	.	.	.	.	.
*	*	*	*	*	*	*Xtremolo	*	*	*	*Xtremolo	*	*	*	*	*	*
=96	=96	=96	=96	=96	=96	=96	=96	=96	=96	=96	=96	=96	=96	=96	=96	=96
!	!	!LO:TX:a:t=P:problem=mixed beam	!	!	!	!	!	!	!	!	!	!	!	!	!	!
8E-\L	.	8e-\L	.	8b-\	.	4.gg\	.	4e-\	.	4g\	.	4B-/	4b-\	1b-	.	4.gg\
8E-\	.	8E-/	.	4b-\	.	.	.	.	.	.	.	.	.	.	.	.
8E-\	.	8e-\	.	.	.	.	.	4r	.	4r	.	4r	4r	.	.	.
8D\J	.	8d\J	.	4b-\	.	8ff#X\	.	.	.	.	.	.	.	.	.	8ff#X\
!LO:LB:g=original	!	!	!	!	!	!	!	!	!	!	!	!	!	!	!	!
8E-\L	.	8e-\L	.	.	.	8gg\L	.	2r	.	2r	.	2r	2r	.	.	8gg\L
8D\	.	8d\	.	4b-\	.	8ff#\	.	.	.	.	.	.	.	.	.	8ff#\
8E-\	.	8e-\	.	.	.	8gg\	.	.	.	.	.	.	.	.	.	8gg\
8D\J	.	8d\J	.	[8b-\	.	8ff#\J	.	.	.	.	.	.	.	.	.	8ff#\J
=97	=97	=97	=97	=97	=97	=97	=97	=97	=97	=97	=97	=97	=97	=97	=97	=97
!	!	!LO:TX:a:t=P:problem=takt zapisany repetycją	!	!	!	!	!	!	!	!	!	!	!	!	!	!
!LO:TX:a:t=P:problem=mixed beam	!	!LO:TX:a:t=P:problem=mixed beam	!	!	!	!	!	!	!	!	!	!	!	!	!	!
8E-\L	.	8e-\Lyy	.	8b-\]	.	4.gg\	.	4e-\	.	4g\	.	4B-/	4b-\	1b-	.	4.gg\
8EE-/	.	8E-/yy	.	4b-\	.	.	.	.	.	.	.	.	.	.	.	.
8E-\	.	8e-\yy	.	.	.	.	.	4r	.	4r	.	4r	4r	.	.	.
!	!	!	!	!	!	!LO:SIC:s=8ff#:v	!	!	!	!	!	!	!	!	!	!
8D\J	.	8d\Jyy	.	4b-\	.	8ff\	.	.	.	.	.	.	.	.	.	8ff#X\
!	!	!	!	!	!	!	!	!	!	!	!	!	!	!	!	!LO:LB:g=original
8E-\L	.	8e-\Lyy	.	.	.	8gg\L	.	2r	.	2r	.	2r	2r	.	.	8gg\L
!	!	!	!	!	!	!LO:SIC:s=8ff#:v	!	!	!	!	!	!	!	!	!	!
8D\	.	8d\yy	.	4b-\	.	8ff\	.	.	.	.	.	.	.	.	.	8ff#\
8E-\	.	8e-\yy	.	.	.	8gg\	.	.	.	.	.	.	.	.	.	8gg\
!	!	!	!	!	!	!LO:SIC:s=8ff#:v	!	!	!	!	!	!	!	!	!	!
8D\J	.	8d\Jyy	.	8b-\	.	8ff\J	.	.	.	.	.	.	.	.	.	8ff#\J
!	!	!LO:LB:g=original	!	!	!	!	!	!	!	!	!	!	!	!	!	!
=98	=98	=98	=98	=98	=98	=98	=98	=98	=98	=98	=98	=98	=98	=98	=98	=98
*	*	*	*	*tremolo	*	*tremolo	*	*	*	*	*	*	*	*	*	*
4E-\	.	4e-\	.	16b-\LL	.	4gg\	.	4e-\	.	4g\	.	4B-/	4b-\	1b-	.	4gg\
.	.	.	.	16b-\	.	.	.	.	.	.	.	.	.	.	.	.
.	.	.	.	16b-\	.	.	.	.	.	.	.	.	.	.	.	.
.	.	.	.	16b-\	.	.	.	.	.	.	.	.	.	.	.	.
4r	.	4r	.	16b-\	.	16bb-\LL	.	4r	.	4r	.	4r	4r	.	.	4bb-\
.	.	.	.	16b-\	.	16bb-\	.	.	.	.	.	.	.	.	.	.
.	.	.	.	16b-\	.	16bb-\	.	.	.	.	.	.	.	.	.	.
.	.	.	.	16b-\JJ	.	16bb-\JJ	.	.	.	.	.	.	.	.	.	.
4E-\	.	4e-\	.	16b-\LL	.	16gg\LL	.	4e-\	.	4g\	.	2r	2r	.	.	4gg\
.	.	.	.	16b-\	.	16gg\	.	.	.	.	.	.	.	.	.	.
.	.	.	.	16b-\	.	16gg\	.	.	.	.	.	.	.	.	.	.
.	.	.	.	16b-\	.	16gg\JJ	.	.	.	.	.	.	.	.	.	.
4r	.	4r	.	16b-\	.	16ee-\LL	.	4r	.	4r	.	.	.	.	.	4ee-\
.	.	.	.	16b-\	.	16ee-\	.	.	.	.	.	.	.	.	.	.
.	.	.	.	16b-\	.	16ee-\	.	.	.	.	.	.	.	.	.	.
.	.	.	.	16b-\JJ	.	16ee-\JJ	.	.	.	.	.	.	.	.	.	.
*	*	*	*	*	*	*Xtremolo	*	*	*	*	*	*	*	*	*	*
=99	=99	=99	=99	=99	=99	=99	=99	=99	=99	=99	=99	=99	=99	=99	=99	=99
(2F\	f	2f\	.	16b-\LL	.	8dd\	.	2f\	.	2f\	.	1b-	1b-	2b-\	.	8dd\
.	.	.	.	16b-\	.	.	.	.	.	.	.	.	.	.	.	.
.	.	.	.	16b-\	.	4ff\	.	.	.	.	.	.	.	.	.	4ff\
.	.	.	.	16b-\	.	.	.	.	.	.	.	.	.	.	.	.
.	.	.	.	16b-\	.	.	.	.	.	.	.	.	.	.	.	.
.	.	.	.	16b-\	.	.	.	.	.	.	.	.	.	.	.	.
.	.	.	.	16b-\	.	4dd\	.	.	.	.	.	.	.	.	.	4dd\
.	.	.	.	16b-\JJ	.	.	.	.	.	.	.	.	.	.	.	.
!	!	!	!	!	!	!	!	!LO:LB:g=original	!	!	!	!	!	!	!	!
2G\)	.	2g\	.	16b-\LL	.	.	.	2g\	.	2g\	.	.	.	[2b-\	.	.
.	.	.	.	16b-\	.	.	.	.	.	.	.	.	.	.	.	.
.	.	.	.	16b-\	.	4b-\	.	.	.	.	.	.	.	.	.	4b-\
.	.	.	.	16b-\	.	.	.	.	.	.	.	.	.	.	.	.
.	.	.	.	16b-\	.	.	.	.	.	.	.	.	.	.	.	.
.	.	.	.	16b-\	.	.	.	.	.	.	.	.	.	.	.	.
.	.	.	.	16b-\	.	8en/	.	.	.	.	.	.	.	.	.	8en/
.	.	.	.	16b-\JJ	.	.	.	.	.	.	.	.	.	.	.	.
!	!	!	!	!	!	!	!	!	!	!	!	!	!	!LO:LB:g=original	!	!
=100	=100	=100	=100	=100	=100	=100	=100	=100	=100	=100	=100	=100	=100	=100	=100	=100
*tremolo	*	*tremolo	*	*	*	*	*	*	*	*	*	*	*	*	*	*
8F\L	.	8f\L	.	16b-\LL	.	2f/	.	1f	.	1f	.	2b-\	2dd\	2b-\]	.	2f/
.	.	.	.	16b-\	.	.	.	.	.	.	.	.	.	.	.	.
8F\	.	8f\	.	16b-\	.	.	.	.	.	.	.	.	.	.	.	.
.	.	.	.	16b-\	.	.	.	.	.	.	.	.	.	.	.	.
8F\	.	8f\	.	16b-\	.	.	.	.	.	.	.	.	.	.	.	.
.	.	.	.	16b-\	.	.	.	.	.	.	.	.	.	.	.	.
8F\J	.	8f\J	.	16b-\	.	.	.	.	.	.	.	.	.	.	.	.
.	.	.	.	16b-\JJ	.	.	.	.	.	.	.	.	.	.	.	.
8FF/L	.	8F/L	.	16a/LL	.	2ccM\	.	.	.	.	.	2f/	2cc\	2a\	.	2ccM\
.	.	.	.	16a/	.	.	.	.	.	.	.	.	.	.	.	.
8FF/	.	8F/	.	16a/	.	.	.	.	.	.	.	.	.	.	.	.
.	.	.	.	16a/	.	.	.	.	.	.	.	.	.	.	.	.
8FF/	.	8F/	.	16a/	.	.	.	.	.	.	.	.	.	.	.	.
.	.	.	.	16a/	.	.	.	.	.	.	.	.	.	.	.	.
8FF/J	.	8F/J	.	16a/	.	.	.	.	.	.	.	.	.	.	.	.
.	.	.	.	16a/JJ	.	.	.	.	.	.	.	.	.	.	.	.
*Xtremolo	*	*Xtremolo	*	*Xtremolo	*	*	*	*	*	*	*	*	*	*	*	*
!	!	!	!	!	!	!	!	!	!	!LO:LB:g=original	!	!	!	!	!	!
=101	=101	=101	=101	=101	=101	=101	=101	=101	=101	=101	=101	=101	=101	=101	=101	=101
4B-\	.	4b-\	.	4b- 4d/	.	4bb- 4b- 4d/	.	4B-/	.	4f\	.	4d/	4b-/	4b-/	.	4bb-\
4F\	.	4f\	.	4f/	.	4ff 4b- 4d/	.	4f\	.	4f\	.	4f/	4f/	4f/	.	4ff\
4D\	.	4d\	.	4d/	.	4dd 4d/	.	4f\	.	4f\	.	4d/	4d/	4d/	.	4dd\
4r	.	4r	.	4r	.	4r	.	4r	.	4r	.	4r	4r	4r	.	4r
!	!	!	!	!	!	!LO:LB:g=original	!	!	!	!	!	!	!	!	!	!
=102	=102	=102	=102	=102	=102	=102	=102	=102	=102	=102	=102	=102	=102	=102	=102	=102
8BB-\L	.	8B-\L	.	8B-/L	.	8g\L	.	0r	.	0r	.	4r	4r	8b-L 8g\	.	8b-\L
16D\L	.	16d\L	.	16d/L	.	16dd\L	.	.	.	.	.	.	.	16dd 16b-\	.	16dd\L
16E-\J	.	16e-\JJ	.	16e-/J	.	16ee-\J	.	.	.	.	.	.	.	16ee- 16cc\	.	16ee-\J
8F\	.	8f\L	.	8f/	.	8ff\	.	.	.	.	.	4f/	4ff\	8ff 8dd\	.	8ff\
8F\J	.	8f\J	.	8f/J	.	8ff\J	.	.	.	.	.	.	.	8ffJ 8dd\	.	8ff\J
!	!	!	!	!LO:LB:g=original	!	!	!	!	!	!	!	!	!	!	!	!
4F\	.	4f\	.	4f/	.	4ff\	.	.	.	.	.	4f/	4ff\	4ff 4dd\	.	4ff\
4r	.	4r	.	4r	.	4r	.	.	.	.	.	4r	4r	4r	.	4r
!	!	!	!	!	!	!	!	!	!	!	!	!LO:LB:g=original	!	!	!	!
=103	=103	=103	=103	=103	=103	=103	=103	=103	=103	=103	=103	=103	=103	=103	=103	=103
8GG/L	.	8G/L	.	8G/L	.	8g\L	.	.	.	.	.	4r	4r	8g\L	.	8g\L
16BB-/L	.	16B-/L	.	16B-/L	.	16b-\L	.	.	.	.	.	.	.	16b-\L	.	16b-\L
16C/J	.	16c/J	.	16c/J	.	16cc\J	.	.	.	.	.	.	.	16cc\J	.	16cc\J
8D/	.	8d/	.	8d/	.	8dd\	.	.	.	.	.	4d/	4dd\	8dd\	.	8dd\
8D/J	.	8d/J	.	8d/J	.	8dd\J	.	.	.	.	.	.	.	8dd\J	.	8dd\J
4D/	.	4d/	.	4d/	.	4dd\	.	.	.	.	.	4d/	4dd\	4dd\	.	4dd\
4r	.	4r	.	4r	.	4r	.	.	.	.	.	4r	4r	4r	.	4r
=104	=104	=104	=104	=104	=104	=104	=104	=104	=104	=104	=104	=104	=104	=104	=104	=104
8E-\L	.	8e-\L	.	8e-/L	.	8f/L	.	4r	.	4r	.	4r	4r	8e-/L	.	8e-/L
16G\L	.	16g\L	.	16g/L	.	16g/L	.	.	.	.	.	.	.	16g/L	.	16g/L
16A\J	.	16a\J	.	16a/J	.	16a/J	.	.	.	.	.	.	.	16a/J	.	16a/J
8B-\	.	8b-\	.	8b-/	.	8b-/	.	4B-/	.	4B-/	.	4B-/	4b-\	8b-/	.	8b-/
8B-\J	.	8b-\J	.	8b-/J	.	8b-/J	.	.	.	.	.	.	.	8b-/J	.	8b-/J
8A\L	.	8a\L	.	8a/L	.	8a/L	.	4f\	.	4f\	.	4F/	4f/	8a/L	.	8a/L
8F\	.	8d\	.	8f/	.	8f/	.	.	.	.	.	.	.	8f/	.	8f/
8B-\	.	8b-\	.	8b-/	.	8b-/	.	4B-/	.	4B-/	.	4B-/	4b-\	8b-/	.	8b-/
8G\J	.	8g\J	.	8g/J	.	8g/J	.	.	.	.	.	.	.	8g/J	.	8g/J
!LO:LB:g=original	!	!	!	!	!	!	!	!	!	!	!	!	!	!	!	!LO:LB:g=original
=105	=105	=105	=105	=105	=105	=105	=105	=105	=105	=105	=105	=105	=105	=105	=105	=105
8A\L	.	8a\L	.	8a/L	.	8a/L	.	4f\	.	4f\	.	4F/	4f/	8a/L	.	8a/L
8G\	.	8f\	.	8f/	.	8f/	.	.	.	.	.	.	.	8f/	.	8f/
8B-\	.	8b-\	.	8b-/	.	8b-/	.	4B-/	.	4B-/	.	4B-/	4b-/	8b-/	.	8b-/
8G\J	.	8g\J	.	8g/J	.	8g/J	.	.	.	.	.	.	.	8g/J	.	8g/J
8A\L	.	8a\L	.	8a/L	.	8a/L	.	4f\	.	4f\	.	4F/	4f/	8a/L	.	8a/L
8G\	.	8f\	.	8f/	.	8f/	.	.	.	.	.	.	.	8f/	.	8f/
8B-\	.	8b-\	.	8b-/	.	8b-/	.	4B-/	.	4B-/	.	4B-/	4b-/	8b-/	.	8b-/
8E-\J	.	8d\J	.	8d/J	.	8d/J	.	.	.	.	.	.	.	8d/J	.	8d/J
=106	=106	=106	=106	=106	=106	=106	=106	=106	=106	=106	=106	=106	=106	=106	=106	=106
!	!	!	!	!	!	!	!	!	!	!	!	!	!LO:TX:a:t=P:problem=nuta bez caudy	!	!	!
8E-\L	.	8e-\L	.	8e-/L	.	8e-/L	.	4e-\	.	4e-\	.	2r	2b-\	8e-/L	.	8e-/L
8E-\J	.	8e-\J	.	8e-/J	.	8e-/J	.	.	.	.	.	.	.	8e-/J	.	8e-/J
8.En\L	.	(8.en\L	.	8.en/L	.	8.en/L	.	4r	.	4r	.	.	.	8.en/L	.	8.en/L
32D\LL	.	32d\LL	.	32d/LL	.	32d/LL	.	.	.	.	.	.	.	32d/LL	.	32d/LL
32E\JJJ	.	32e\JJJ)	.	32e/JJJ	.	32e/JJJ	.	.	.	.	.	.	.	32e/JJJ	.	32e/JJJ
*	*	*	*	*	*	*	*	*tremolo	*	*	*	*	*	*	*	*
4F\	.	4f\	.	4f/	.	4f/	.	8f\L	.	2f\	.	4r	4r	4f/	.	4f/
.	.	.	.	.	.	.	.	8f\	.	.	.	.	.	.	.	.
4FF/	.	4F/	.	4a 4e-X/	.	4a 4e-X/	.	8f\	.	.	.	4f/	4cc\	4e-X/	.	4a/
.	.	.	.	.	.	.	.	8f\J	.	.	.	.	.	.	.	.
*	*	*	*	*	*	*	*	*Xtremolo	*	*	*	*	*	*	*	*
!	!	!	!	!	!	!	!	!	!	!	!	!	!	!LO:LB:g=original	!	!
=107	=107	=107	=107	=107	=107	=107	=107	=107	=107	=107	=107	=107	=107	=107	=107	=107
4BB-/	.	4B-/	.	4b- 4d/	.	4b- 4d/	.	4B-/	.	4f\	.	4B-/	4b-\	4d/	.	4b-\
4r	.	4r	.	8r	.	8r	.	4r	.	4r	.	4r	4r	8r	.	8r
.	.	.	.	8dd\	.	8ff\	.	.	.	.	.	.	.	8r	.	8ff\
4BB-/	.	4B-/	.	4b- 4d/	.	4dd 4f 4B-/	.	4B-/	.	4f\	.	4B-/	4b-\	4dd\	.	4bb-\
4BB-/	.	4B-/	.	4b- 4d/	.	4dd 4f 4B-/	.	4B-/	.	4f\	.	4B-/	4b-\	4dd\	.	4bb-\
!	!	!	!	!	!	!	!	!	!	!	!	!	!LO:LB:g=original	!	!	!
=108	=108	=108	=108	=108	=108	=108	=108	=108	=108	=108	=108	=108	=108	=108	=108	=108
2BB-/	.	2B-/	.	2b- 2d/	.	2dd 2f 2B-/	.	2B-/	.	2f\	.	2B-/	2b-\	2dd\	.	2bb-\
4r	.	2r	.	2r	.	2r	.	2r	.	2r	.	2r	2r	2r	.	2r
!	!	!	!	!	!	!	!	!	!	!	!	!LO:TX:b:t=Andante Tacet	!LO:TX:b:t=Andante Tacet	!	!	!
4r	.	.	.	.	.	.	.	.	.	.	.	.	.	.	.	.
==	==	==;	==	==	==	==	==	==	==	==	==	==	==	==	==	==
*-	*-	*-	*-	*-	*-	*-	*-	*-	*-	*-	*-	*-	*-	*-	*-	*-
!!!system-decoration: [g1][g2][g3]
!!!RDF**kern: > = above
!!!RDF**kern: < = below
!!!RDF**dynam: p = "p."
!!!RDF**dynam: f = "f."
!!!RDF**dynam: sf = "sf."
!!!ENC: Marta Lawrence
!!!END: 2020-08-30
!!!ENC: Andrzej Gręziak
!!!END: 2020-05-14
!!!YEC: Copyright 2022 Narodowy Instytut Fryderyka Chopina (https://polishscores.org)
!!!YEM: Licence CC BY 4.0 (https://creativecommons.org/licenses/by/4.0)
